IgorMichels/Brazilian_Soccer/Code/RStanCode/Example/parameters.csv
draws,lp__,accept_stat__,stepsize__,treedepth__,n_leapfrog__,divergent__,energy__,mu,tau,eta.1,eta.2,eta.3,eta.4,eta.5,eta.6,eta.7,eta.8,theta.1,theta.2,theta.3,theta.4,theta.5,theta.6,theta.7,theta.8
0,-39.543857008236856,0.9811491379576204,0.45611429717578444,3.0,7.0,0.0,43.90191686929249,1.6316853950019017,10.814232623776565,0.06569064417190984,0.3873251498940939,-0.7022519633388774,-0.8809401572552791,-1.7508979061518917,0.20138540434084828,0.7522496198050427,-0.21515162533503648,2.342079302282667,5.82030966699576,-5.962630697048531,-7.895006393182995,-17.302931862607963,3.809514004577138,9.766687774721113,-0.6950143307548025
1,-38.41339627003939,0.9715460952325231,0.37403654628219746,3.0,7.0,0.0,42.40354983557938,11.124495237172088,9.920061654909034,1.0755526602280518,0.8429864301067035,0.5132470392096935,-0.7512487689647277,-0.7771431735588425,0.8386379559943932,0.27064641935208794,1.1763799686155079,21.79404393973579,19.486972598082254,16.215937510331763,3.672061130867476,3.415187040776697,19.443835466783355,13.809324403825165,22.794257055437882
2,-43.07790871444403,0.7481047047333707,0.31894884500949744,3.0,15.0,0.0,47.43974918027773,13.817961844258678,0.524344499102844,-0.5521554532033047,-0.11625491507909175,-1.5910018477170802,-1.621613679387468,0.188599952434354,-1.1184542322166373,1.0722931374452267,-0.9644630181073939,13.528442169721886,13.757004219043287,12.983728777345766,12.967677631801935,13.91685319184869,13.23150652009759,14.380212852303812,13.312250966125939
3,-37.73695161055916,0.9960730864324197,0.3791438206322386,4.0,15.0,0.0,42.15198499071863,5.9786160932940735,5.649706585734613,1.064808355730821,1.0792120779713854,-1.0134876239098622,1.0718378510052942,-0.49041410503713956,-0.7764240002574575,-0.4481526582390415,0.3606357809646167,11.994470873211737,12.075847677613346,0.25270838993000044,12.03418545895832,3.2079202943286,1.5920483057171033,3.4466850686264876,8.016102440061413
4,-39.13258061488447,0.9031670199381703,0.45611429717578444,3.0,7.0,0.0,46.92776257370314,1.5521663750313777,11.159275598736029,1.1197865791893644,1.1599395478702719,-0.11083295882995725,-0.8969138695439259,-1.338435255202852,-0.4566497017026915,0.30207967685073095,-0.553535052203188,14.048173423971342,14.496251467589005,0.3153508420245208,-8.456742683538064,-13.383801508841838,-3.5437134983495535,4.923156741785805,-4.624883826064732
5,-39.93797921460678,0.9002009252719115,0.37403654628219746,4.0,15.0,0.0,44.804000682961856,12.179636882191346,6.2095928423534135,-0.32533382089172475,0.2589649827549698,-0.18293047790969208,-0.04640551637471535,1.1019062826882509,-0.3184201278562574,-0.07120743203722635,1.8627241541438784,10.159446316606605,13.787703985526782,11.043713095915033,11.8914775198652,19.022026248116568,10.202377535393872,11.737467721890619,23.74639545704199
6,-41.94329323030811,0.9768131755368596,0.31894884500949744,4.0,15.0,0.0,46.10295377606367,14.318173708135628,0.6468340460799669,-0.43085113407867864,-0.08752254340339474,-1.031158815999579,-1.4363413108829537,0.25264515397714105,-1.415445900759018,0.9999967966133507,-0.5202409007654383,14.039484525821374,14.261561147262801,13.651185079031592,13.389099246465404,14.481593195305159,13.402615109140369,14.965005682156047,13.981664181357234
7,-37.96530347983458,0.9885064134225658,0.3791438206322386,4.0,15.0,0.0,41.20823744604944,4.192866752863435,8.704474608270502,0.7669868804098221,1.7986362756622118,-0.4324728653706885,-0.05245470241164363,0.26739211618543385,-0.6624220516525582,-0.22247696400063008,-0.13479648745891137,10.869084578267335,19.849050543879383,0.4284176774782895,3.7362761276368976,6.52037463865126,-1.5731691757047086,2.25632166879484,3.019534150493288
8,-37.840470167268556,1.0,0.45611429717578444,3.0,7.0,0.0,42.297126973991276,3.338827864212808,7.385358409801359,1.5408174288523326,0.07368307741103697,-1.232008400973797,-0.9643545143936647,-0.006631162878107166,-0.4755225409045603,1.1822227240895962,-0.8238658834111141,14.71831682035589,3.8830037996304547,-5.759995740864948,-3.783275858694349,3.2898543496842167,-0.17307653230679731,12.069966401826179,-2.7457169663858894
9,-38.10101135862345,0.8799772630622132,0.37403654628219746,3.0,15.0,0.0,43.35034524093578,12.149239612339162,5.548522229328209,-1.346438412528972,-0.7117856303081542,-0.3590632547289726,0.6558711014316175,-0.7088807193362087,-0.537183234337827,-0.5711871925642491,0.3587760617998115,4.678496150000776,8.199881220057978,10.15696916174052,15.788354998206469,8.215999183160037,9.168666495393305,8.979994777288853,14.139916566586248
10,-37.25982207458535,0.9755071174131412,0.31894884500949744,4.0,15.0,0.0,44.055540123704844,-0.6237340414744699,13.755591944388957,0.9910507559834226,0.36922427877601843,0.08365606097906686,0.977523964497236,-0.312889134957024,1.0580704029392973,-0.04999673572807878,0.5190687210846023,13.008755754011684,4.455164473329752,0.5270045970284936,12.822686730010865,-4.927709305776138,13.930650669793707,-1.3114687367013738,6.516363476861164
11,-38.35708355370873,0.885138628872337,0.3791438206322386,3.0,7.0,0.0,43.25240922448391,8.782486236500283,2.2692907051126068,0.5809005213276691,0.6544373336743863,0.30853998133666266,0.8312986025927447,-1.8011077774889925,-0.13510568356427935,0.7292910564582711,-0.01769522847706413,10.10071839014423,10.267594794886245,9.48265314830319,10.668944428537097,4.695249098138487,8.475892164579978,10.43745965224279,8.742330618992437
12,-41.64127821511378,0.7933349995216208,0.45611429717578444,3.0,7.0,0.0,46.08517992270902,13.883888690501237,7.129196257139601,-0.9147706481823518,-0.7926127156049568,1.2940977628561259,-1.461058807243238,-1.2733739395296007,0.03104791958633557,1.1035628020654633,1.602846279851619,7.362309209338449,8.233197085049124,23.10976561782786,3.4677137104418954,4.8057559668677,14.105235402608113,21.75140448850483,25.31089438958953
13,-37.721159658137324,0.9897150962279724,0.37403654628219746,3.0,15.0,0.0,40.520072102776666,11.818544300381028,6.296008796681145,-0.6932223693632311,-0.9804475058170838,-0.6431438401781369,-0.3268329287666923,-1.5667843370486778,-0.9941916515406559,-0.5550373057129377,0.6006257389852807,7.454010164813979,5.64563817907258,7.769305025088186,9.760801305820872,1.9540563318203166,5.5591049166941024,8.324024541126171,15.600089236545468
14,-38.1599266305723,0.8911406915351756,0.31894884500949744,4.0,15.0,0.0,43.64738395658341,12.326549828118125,6.806659643576648,0.1148503093653923,0.258086457482231,0.24939868128792098,-0.6666505710943295,0.04154078595207003,-2.0684120670029658,1.0353546644479126,-0.10636240692364907,13.108296793927835,14.083256502816088,14.024121767201851,7.7888862894830275,12.609303819420536,-1.7524271146379196,19.373856639404572,11.602577125317246
15,-38.22619604044163,0.9776979388638362,0.3791438206322386,3.0,15.0,0.0,40.56222420742146,8.099916882490955,2.722738435734568,0.657253745170115,0.9559857804122888,0.5299687150815225,0.7589642614716655,-1.490248668163368,-0.2540296323978388,0.9808320690381451,-0.42215643419684773,9.889446916496121,10.702816110835201,9.54288307278028,10.16637804854876,4.042359554880304,7.408260638545836,10.770466055862174,6.950495333210547
16,-41.64127821511378,0.13164727623860242,0.45611429717578444,3.0,7.0,0.0,48.02926040420784,13.883888690501237,7.129196257139601,-0.9147706481823518,-0.7926127156049568,1.2940977628561259,-1.461058807243238,-1.2733739395296007,0.03104791958633557,1.1035628020654633,1.602846279851619,7.362309209338449,8.233197085049124,23.10976561782786,3.4677137104418954,4.8057559668677,14.105235402608113,21.75140448850483,25.31089438958953
17,-38.387601991805575,0.9773377057207772,0.37403654628219746,3.0,7.0,0.0,40.59136567760517,18.080731074513366,26.364922907159162,1.276538648805502,-0.0649760958267247,-0.28429661390469085,-0.3806372099621757,-0.4990545318321958,-0.45788951132036565,0.5836633102324488,-1.3281772236613927,51.73657413827955,16.367641317233584,10.5852727661498,8.045260378264448,4.923196816289117,6.008509408555144,33.4689692525292,-16.936559034363945
18,-36.483200314444005,0.9991543403048225,0.31894884500949744,4.0,15.0,0.0,40.30418405195688,6.963756436503295,14.11714349601089,0.23934891913417822,-0.28644931075441216,-1.527749105076005,0.06948239211905222,-0.870194950107704,0.5145711955756815,0.7739562873618255,-0.6169077627203281,10.342679473535595,2.919910412249843,-14.603696905756888,7.944649336494051,-5.320910543671199,14.228031843359075,17.889808404830024,-1.745218973622614
19,-37.00448906478586,0.9361967496598709,0.3791438206322386,3.0,7.0,0.0,42.65909878157228,3.2019703276654097,8.670689735752102,0.6419898908146745,-0.19942497409694948,0.30675019860567865,0.1300312098278814,-0.9707053495095337,-0.018880228958399664,-0.10344823339894582,-1.1212136143858862,8.768465484408821,1.472818251710361,5.861706126155586,4.329430604047449,-5.21471458276656,3.038265720227164,2.305002792151482,-6.519725050175809
20,-40.02857467475828,0.7912502137751244,0.45611429717578444,3.0,7.0,0.0,45.70545476350259,13.682372897796924,12.852222904913926,1.9856192178668473,-0.7137622069475977,-1.0067630742618419,0.30980312440473545,-1.35220745187987,-1.9934335913515886,-0.04532342999180661,-0.8823380665084918,39.2019936901025,4.508941913003094,0.7432294549473202,17.664031709285364,-3.6964986874488375,-11.93767996439679,13.099866072726964,2.342367389539019
21,-36.047287272127825,1.0,0.37403654628219746,3.0,7.0,0.0,39.61185444932721,16.65978658002867,10.2391472390101,1.5498871105554175,-0.5625263235762384,-0.7468786368458131,-0.3992751432902155,-0.9267564521984386,-0.6495684041896963,0.24001467263375026,-0.34901761275692933,32.529308908849515,10.899996727112526,9.012386247693236,12.571549599003298,7.170590811266232,10.008760047721545,19.117332152648444,13.08614385400266
22,-38.58582599930112,0.9209208619768902,0.31894884500949744,4.0,15.0,0.0,42.11538472326835,6.686220585130805,2.9614077591083774,2.120367707016671,0.23677486310817486,-0.1360639920795529,-0.5283607203398077,0.30864103549057037,-0.9375816806763366,-0.23816457092019014,0.521658068234684,12.965493964852811,7.387407501901178,6.283279623251156,5.121529048308407,7.600232542411824,3.9096589211780284,5.980918176863036,8.231062836002485
23,-36.31414032616435,0.9899808446771774,0.3791438206322386,3.0,7.0,0.0,38.99645594083431,3.1162518081770703,5.194970453509727,0.12419915293811934,-0.37328291777776784,0.12262521051374227,0.10187083107972592,-0.6930667727256916,0.2586013910344654,0.9030691629009788,-0.4142135164831963,3.761462738041536,1.1770580795216654,3.7532861536513717,3.645467765710727,-0.48420959844223876,4.459678393837633,7.807669426923418,0.964424828602501
24,-42.22646229159205,0.9005145312542876,0.45611429717578444,3.0,7.0,0.0,45.789133351595375,17.625289078981055,6.139640629551882,2.193583317455668,-0.4551293870768903,-1.0270559859818311,-0.39496089748885804,-0.6375678436872747,-1.3174311427421685,-1.9149212818440546,-0.08685303919518705,31.093102339139076,14.830958202380735,11.319534418622537,15.200371105674186,13.710851641782881,9.536735308364273,5.868360574577727,17.092042630738224
25,-37.56547091937866,0.2961310675216351,0.37403654628219746,4.0,15.0,0.0,42.687034739748,16.793597819412522,11.026686403865288,-1.1756161469260455,-0.37396690612524036,-0.9116395535785697,-1.2795016233408811,-1.0876114463144808,-0.6832465120056538,-0.4446816326667217,-0.049857156750698114,3.8304472359385997,12.669982020145767,6.741234348741887,2.6849346655960638,4.800847471648375,9.259652794991398,11.890232906437763,16.243838586934217
26,-40.20719047024918,0.6848480894044484,0.31894884500949744,4.0,15.0,0.0,44.16208573282292,7.888009681342679,1.6662331874179626,2.2928822014624934,0.05603113740593113,0.08488660053281114,-0.26830119313977124,0.20058845880222503,-1.1494021774672623,-0.5235060902304987,0.9899415190763129,11.708486100259446,7.981370622017218,8.02945055231754,7.440957329109356,8.222236828411967,5.972837627556256,7.0157264599852,9.537483094030584
27,-37.43815371189563,0.9729639001164614,0.3791438206322386,3.0,7.0,0.0,40.88960783917829,9.349609805076911,6.440095386897437,1.193775650154917,0.815985113816865,-1.0174567539506163,0.06330067600718274,-0.22897871559733918,0.1793385725838511,-0.06861917546493107,-1.38376523875657,17.037638862630082,14.604631772345883,2.797091257591906,9.757272196618258,7.874965035060787,10.504567319066942,8.907695769712502,0.4380296744116947
28,-40.04989518653857,0.9620845929539646,0.45611429717578444,3.0,7.0,0.0,46.63528045108611,6.7164371690968405,9.053478704818724,-0.8292268928006504,1.3793096635921824,-0.6659897931346865,-0.2848818310146389,-1.6861623089813027,0.7930859323694617,0.8385483574621754,0.7670663435291296,-0.7909508463368473,19.203987835779344,0.6869127593253284,4.1372655786160415,-8.549197388133354,13.896623768895065,14.308216866341365,13.661055975420979
29,-37.63918820143944,0.5985469526130703,0.37403654628219746,3.0,7.0,0.0,41.89676415088679,20.437504496988097,12.866996528447782,-1.1566908254590214,-0.1905815446240556,-0.6778200667366171,-0.9003497907380436,-1.1539410956476015,-0.385475754300284,0.0009792584908407398,0.24873573516876502,5.554367661319471,17.985292423924157,11.715996051375802,8.852706865173005,5.589748425257179,15.477589304605551,20.4501046125902,23.637986337905502
30,-42.494995642159616,0.961866589231118,0.31894884500949744,3.0,7.0,0.0,46.18278146144967,12.424993616504294,4.17029572135485,2.12146172224095,-0.12442202502020516,0.9429530922850585,-0.6218460369230154,0.7394614054683715,-1.0731415736621883,-1.2205195682470527,1.6062112494904117,21.27211635978382,11.906116977920226,16.357386862699,9.831711749382773,15.508766351836087,7.949675903452859,7.335066083213741,19.123369517846186
31,-39.137681168400405,0.7211162461471473,0.3791438206322386,4.0,15.0,0.0,40.670916193619824,7.011948231323251,6.316789731529774,-0.3909112349607269,-1.120077194329406,0.5650729764617474,1.1285640184432246,-0.8007918825231426,-0.4037696890392094,0.42871652992064424,1.8342769926149955,4.542644156383709,-0.06334388833741933,10.581395406601782,14.14084983439939,1.9535142907086671,4.461420005697403,9.720060405263053,18.59869030305497
32,-40.83964621264029,0.35942969547033726,0.45611429717578444,3.0,7.0,0.0,48.77207204157913,8.623460103132278,1.950763467946557,-0.8143969181416028,-0.06015030339222727,0.3326001503066691,0.6784786224440653,-0.24432515909854813,1.5824125807749618,1.8754110503958177,-1.1536095064235752,7.034764346813376,8.506121088688818,9.272284325784062,9.947011413578865,8.1468395084626,11.710372756927104,12.281943467627718,6.373040821725308
33,-37.42683890473269,0.6966634605720363,0.37403654628219746,3.0,7.0,0.0,40.42672652519288,17.615349280453643,12.322200061716096,1.7523835628247546,-0.6765759407442336,-0.9245941606027409,0.10244761957574311,-0.3943683931329007,-0.9481266371452549,0.22313728758727602,-0.5985691066182409,39.20857012644311,9.278445181659423,6.222315057612207,18.87772934471253,12.755863042252535,5.932343173707709,20.36489157933274,10.239660997941005
34,-43.104121191663936,0.985405856945837,0.31894884500949744,4.0,15.0,0.0,48.73287380092739,8.81316329064997,2.458184823704286,-1.5984638388414276,0.9581024370011255,-2.6473299733608617,0.4509448614007635,0.3596709002549464,-0.44716296969128544,1.6886892944614544,-0.2411530492977773,4.883843740769878,11.168356160840228,2.3055369267968278,9.921669105272759,9.697300839184736,7.713954064832312,12.964273686247015,8.220364524676162
35,-42.51273782911595,0.9652494368478851,0.3791438206322386,3.0,7.0,0.0,43.47450266350915,9.094525213408922,3.8136778714441943,-0.37155026376687544,-1.236935721205663,1.008257464255148,1.9352976386448968,-1.1325618877425638,-0.84401999174034,1.055996680285976,2.048474126694806,7.677552194351935,4.377250825048019,12.939694393557215,16.47512699256717,4.775299004084042,5.875704847852275,13.121756385334077,16.906745660610873
36,-37.356152246934094,0.2781128609461548,0.45611429717578444,3.0,7.0,0.0,47.75372118642,13.282464054735478,12.953035701783255,-0.4331085779918133,-0.24887407466439945,-1.649302033754377,0.05028251019551194,-1.2638688689865016,-0.12785562061161204,1.1263985863199304,-0.473608006792485,7.6723931812589425,10.058789280359239,-8.081004071508698,13.933775204473225,-3.088474527619102,11.626345636279611,27.872745157775725,7.147802634102013
37,-40.093525873663864,0.7691248152933539,0.37403654628219746,4.0,15.0,0.0,43.003196175647574,5.734028620897389,1.1497404818037564,-1.166307992105493,0.9829420792016189,0.9034189963739327,0.8313484573450829,0.1847869860344677,0.8402175403730356,0.1481282060386724,1.121861945737832,4.393077108122448,6.864156920623844,6.772726013059021,6.689863596792135,5.946485699251721,6.70006074058585,5.904337615877019,7.023878714907304
38,-40.04846210905904,0.9873723517417428,0.31894884500949744,4.0,15.0,0.0,47.986722579061954,9.76770587819293,10.094828831500632,2.597883818437008,0.09613209862861122,0.23206534000273127,0.8147755372971504,0.16795885872104008,-1.4561951238173585,0.1068795796238326,0.8127964908658447,35.99289834943979,10.738142959061696,12.110365763244499,17.99272546330162,11.463221807716026,-4.932334642009174,10.846636940078263,17.972747328327998
39,-38.9084894205205,0.966070108125902,0.3791438206322386,3.0,7.0,0.0,49.343635299681125,1.7610854789281953,6.365476261774266,0.23513495010045504,-0.6509651489576074,-1.3332111985583908,1.0283332033251742,0.9533004837273649,-0.41302416982688506,1.141276737156198,-0.5057248976411357,3.2578314221061184,-2.3826177240038033,-6.725438757426859,8.306916073888882,7.829297078432662,-0.8680100696438648,9.025855457411163,-1.4580943519946747
40,-37.04869346200324,0.6023043145925671,0.45611429717578444,3.0,7.0,0.0,42.38026161548892,8.595525878982391,4.301276884142468,-0.7413329717870208,-0.8595851972878981,0.4479527057639532,-0.8632448789937381,-0.6488853217655208,0.04064959677673902,0.4581490114635221,0.21284920110940325,5.406847503982238,4.898211939936912,10.522294497473956,4.882470635612263,5.804490444013009,8.77037104994789,10.566151631483162,9.51104922752246
41,-39.51266601471348,0.9459347347168505,0.37403654628219746,3.0,7.0,0.0,45.72783098243028,5.197377695566505,1.1142797985948951,-0.05104229344189071,0.29555713337978606,1.0493652539658924,-0.27837085113919746,-0.8824075675350831,0.7711392999478813,-1.2507980516275512,0.49468621960132714,5.140502299110254,5.526711038622218,6.366664199408101,4.8871946796244305,4.214128768934901,6.056642639401039,3.8036386945160703,5.748596556711542
42,-42.05314285498989,0.937161672873996,0.31894884500949744,4.0,15.0,0.0,46.35826707547651,10.748817998921453,3.6912373630937947,-1.656464076331938,-0.5667576327741998,-1.0072275325918136,-1.4255018004388489,-2.221712876080821,0.3972408902113945,-0.5830616245175024,0.9439835121976827,4.634415909742351,8.656781049006735,7.0309020974817775,5.486952491984099,2.547948420665353,12.215128415018393,8.596599145516283,14.233285209290045
43,-41.90308366679794,0.9424811506937597,0.3791438206322386,3.0,7.0,0.0,47.550851434244066,0.21463257727383178,10.527498456912099,0.31798618175047055,-0.07050079562202571,-1.5566021534251764,1.4832606103064905,1.4539563380673277,-1.0410869564452216,0.781365872514852,-0.08645236895345693,3.5622316149712807,-0.5275644398481192,-16.172494190935762,15.829656363473909,15.521155682695191,-10.745408750214551,8.440460594457713,-0.6954946034800814
44,-39.266875941795675,0.8651754601420379,0.45611429717578444,3.0,7.0,0.0,41.844673117424435,9.105996767706332,9.862252883737993,1.237676236416104,1.2487152330935394,-1.7030538236301096,-0.9967721451204962,-0.7499649290830497,-0.33662126911605733,1.5616254591532903,-0.4620013269495697,21.31227279943504,21.421142176250648,-7.689950715550731,-0.7244221949379863,1.7096529831546654,5.786152685638952,24.507141955559536,4.549622848707159
45,-36.008503195318426,0.947598959882322,0.37403654628219746,3.0,7.0,0.0,44.22775109446466,12.902663287111201,7.724885924726237,0.0630169430449552,-0.13014252188844463,-0.40533938808159076,-0.3467789690140667,-0.16739730050238344,-0.8441129229193458,1.2155838043479836,0.1281928696339103,13.38946198345845,11.89732715156678,9.771462753382576,10.223835310383361,11.609538236623171,6.381987249972023,22.29290950764411,13.89293858139646
46,-40.25739519941553,0.9917422355189721,0.31894884500949744,4.0,15.0,0.0,46.21810970113216,2.3314065421712584,4.384793003393336,2.1051549823846085,0.36586761840785786,1.3253451374125895,1.3008417054206034,0.30444207502827286,-0.908579808136798,0.9866619165962667,-0.5460388589731711,11.562075379989912,3.935660315534217,8.142770627779361,8.035328150621776,3.6663220226937785,-1.6525278435714332,6.657714810777228,-0.06286082623518263
47,-43.27550793524035,0.9694114670363666,0.3791438206322386,3.0,7.0,0.0,49.673880866096425,9.861591870851257,0.3893432365487317,0.28198096459026106,1.5884478929751338,-0.08131903957807018,0.6854327099220141,0.8989961385048619,-2.4269185338470054,0.7485526664877087,0.23226474125232865,9.971379252249962,10.480043314591208,9.829930852788896,10.128460460568661,10.211609937061551,8.916687554043161,10.153035788748765,9.952022576946591
48,-39.266875941795675,0.016525227679349264,0.45611429717578444,3.0,7.0,0.0,44.469732562974244,9.105996767706332,9.862252883737993,1.237676236416104,1.2487152330935394,-1.7030538236301096,-0.9967721451204962,-0.7499649290830497,-0.33662126911605733,1.5616254591532903,-0.4620013269495697,21.31227279943504,21.421142176250648,-7.689950715550731,-0.7244221949379863,1.7096529831546654,5.786152685638952,24.507141955559536,4.549622848707159
49,-35.59541696729172,0.926332578932601,0.37403654628219746,3.0,7.0,0.0,41.558255878125564,9.700270670500167,9.756829161242653,0.4843211941674379,-0.4081686695480172,-0.9569033186213228,-0.545274412310444,0.22607742509183254,-1.0253595244157494,0.7465538788690647,-0.1672375341612164,14.42570982116089,5.717838692748456,0.36392846688577585,4.380121383590177,11.906069484334811,-0.30398703807731486,16.984269326288672,8.068562620341696
50,-43.14929992819154,0.7190055513436017,0.31894884500949744,3.0,15.0,0.0,46.92433816597384,10.729949121782878,1.5605363337141103,1.1451961440737217,0.5281480937746246,1.6945698836921002,1.0893421648571684,0.5078170931382546,-1.3196080559040464,2.268664703705426,0.027972745176534475,12.51706931383922,11.554143411700027,13.374386995302094,12.429907149889276,11.522416146506208,8.670652804282774,14.270282820929953,10.773601606984586
51,-46.639035137648335,0.9582185367364034,0.3791438206322386,4.0,15.0,0.0,48.96362572049585,15.359122361718695,1.246657215620388,1.0112921511388966,-0.764090442142245,-0.7283623501355865,0.037092341615044155,-1.6818141730559777,2.3335400265505752,1.4855956163762292,1.9771361416476023,16.619857019036264,14.406563498635492,14.451104182335943,15.405363797037346,13.262476587545825,18.26824687375696,17.21115085636814,17.823933398967533
52,-37.47117436922874,1.0,0.45611429717578444,3.0,7.0,0.0,41.61467172508052,5.5517576858325945,7.142364346509502,2.1350089598104387,-0.09200398840954205,-0.9206956156115673,-0.29086576561872846,0.15952282524665726,-0.8854199468963693,0.2755649404942643,-0.6743096405582045,20.80076955986101,4.894631679279608,-1.0241858530990813,3.474288411857199,6.691127825328785,-0.7722341745683696,7.51994289196684,0.7355925506020373
53,-37.37599350857565,0.9452664189127425,0.37403654628219746,3.0,15.0,0.0,40.348066855091176,5.303050149062035,7.752833796207252,1.2616979704069367,0.16218053424120624,0.8007857919000548,0.9845573102268846,0.7004454393302421,-0.2964169048628269,1.177727359987178,-0.4854511037379688,15.084784814639033,6.560408876014207,11.511409300027367,12.936159338091935,10.733487223500774,3.004979151274361,14.433774628288575,1.5394284255961983
54,-40.69054876513043,0.9951799848849409,0.31894884500949744,4.0,15.0,0.0,47.937999632516565,12.96415093278026,1.0718878947079107,0.2064142044675386,0.28904305199899005,-2.133808048030877,-0.7674543578941998,-0.35839979663762905,-0.2715969454456407,-0.2716277562680106,-0.8613140114780489,13.185403819844778,13.273972681267407,10.676947916465647,12.141525896812634,12.579986529298608,12.673029454717433,12.672996428969908,12.040918870334629
55,-40.75508738555869,0.8284782507939692,0.3791438206322386,4.0,15.0,0.0,51.31004983019671,9.359886693186358,7.982400903592514,-1.1709234829806134,-0.5481547116504177,-2.321027424547028,0.33398142331168157,-1.4051992721803286,0.6617056103759932,0.441632043368246,0.8649842133067811,0.01310602460421606,4.984296027599569,-9.167484717780845,12.02586030841264,-1.8569772467934396,14.64188615536392,12.885170715224453,16.264537459079666
56,-39.34651985677111,0.8573262705549295,0.45611429717578444,3.0,7.0,0.0,43.979504170779975,2.654826237177615,9.26782506528902,-1.0447140344290509,0.2959121849779281,0.5243626003498238,1.0699685565194699,-0.42830755036903273,0.8096209816976587,0.3147532414403705,1.3372391115418192,-7.027400677163159,5.397288602240498,7.514527087999841,12.57110764435987,-1.3146532137850464,10.15825186473908,5.571904217579647,15.048124393409706
57,-40.523818418603405,0.9356711789758589,0.37403654628219746,4.0,15.0,0.0,43.31796192487307,8.541490999740985,2.7598123082801527,-1.0555192234800341,-2.3524680040924126,-0.6035483527733823,-0.4107702238718028,-0.905868304888098,0.38426003137584186,0.5686681999963599,0.66762051626137,5.628456055154477,2.0491208472114995,6.875810827114792,7.40784228002459,6.041464502229934,9.601976563912151,10.110908497418459,10.383998317779463
58,-36.612769921594314,0.9979461789461782,0.31894884500949744,4.0,15.0,0.0,42.51338656509922,10.327630298867923,19.086487207176727,-0.265241243048456,-0.6140686305295018,0.7306888295129772,-0.24725997339320882,-0.15196467828314014,-0.7340970076030767,0.7508746409265488,0.08992955592469576,5.265106706607916,-1.3927827620619446,24.2739132957943,5.608305979851585,7.427158410874042,-3.683702845574917,24.659189527105916,12.044069617571713
59,-41.057256217284575,0.9562384045550266,0.3791438206322386,3.0,7.0,0.0,44.91852551142995,9.05449694891256,4.7386518235727975,-1.470542990449394,-0.3533992197202153,-2.2511936284025316,-0.3173989449773351,-1.641787040234566,0.3539695038287927,0.09164190907105885,1.0082779094077188,2.086105725577344,7.379861091936157,-1.6131258435325595,7.5504538594956285,1.2746397967868477,10.731835183720026,9.488756048447826,13.832374902995614
60,-39.79333774202769,0.9769758968493439,0.45611429717578444,3.0,7.0,0.0,43.529768883694395,3.446165626096932,3.2693116772723547,0.07500200925298472,0.21555223988502722,1.4643967944142122,-0.8656423514401914,-0.8688379050581299,0.3618216495403373,0.17000632536638105,1.738123360419709,3.6913705707666042,4.150873081015264,8.233735166235519,0.6161109781920149,0.6056637174335386,4.6290733700291025,4.001969290827406,9.128632624856952
61,-44.123260590122065,0.942887438688402,0.37403654628219746,3.0,7.0,0.0,46.54256452145354,11.778271380856992,2.933841298631485,-0.6303868459882868,-2.1149039117041473,-1.599702877720514,1.491280991925249,-1.007976538908107,1.4880361291088262,-0.2493482875918513,1.3764104300105022,9.92881641798251,5.573478942062089,7.084997012660915,16.153453142831413,8.821028182956763,16.1439332302922,11.046723076976978,15.816441144288925
62,-36.565404259025215,0.9453334215564232,0.31894884500949744,3.0,15.0,0.0,39.869682570437654,10.467768329070973,17.87867839204965,-0.1732099296950027,-1.0167263204633799,0.66440736963454,-0.3897953080869896,-0.429354023411806,-0.44173042269964824,0.4100648955231571,0.3408168664558258,7.371003701744488,-7.709954567225806,22.346494012074565,3.498743377053776,2.791485828158737,2.5702121656398136,17.79918671599894,16.561123475020818
63,-36.00570377174178,0.9422063627193362,0.3791438206322386,3.0,7.0,0.0,47.249339898757626,9.386674543336554,7.084431768413632,1.0310508062239183,-0.4519340833807065,0.19781221565217277,-0.05357284244125751,0.23648853635782707,-0.24124369415596952,-0.41342948342762653,0.3377071564623836,16.691083629797767,6.184978365805382,10.788061688083095,9.00714139642149,11.062061443175587,7.6776000525285415,6.457761576943039,11.779137850999296
64,-39.49641907294945,0.9705246857877772,0.45611429717578444,3.0,7.0,0.0,42.29723211712151,4.045472532271983,11.516692934705805,-0.12298134882178575,0.288728738285076,0.8787346674188445,-0.9629916426025913,-0.2697494714080949,-0.033004066003315985,-0.3956365226490074,1.705403954204724,2.629134101195533,7.370672752526239,14.165589868015646,-7.045006514270018,0.9388507007657507,3.6653748385150298,-0.5109518128314132,23.68608620248087
65,-41.45737482323105,0.9971218787692412,0.37403654628219746,4.0,15.0,0.0,49.99102754396064,6.110033713435695,5.877716306638317,2.0480926828544304,0.16139655595977354,-1.172116243396144,-0.13343639513506522,-2.447876356018675,0.7073342758560124,0.8375061381034983,-1.2060955646500011,18.1481414729558,7.058676882235719,-0.7793330436494674,5.325732437851288,-8.277889060969652,10.267543920878785,11.032657198276308,-0.9790538542717648
66,-35.52237224618325,1.0,0.31894884500949744,3.0,7.0,0.0,38.01416133189613,12.34078696580805,9.270957566704158,1.095503227013117,0.7111130413036386,-0.34602408950634606,-0.6885737799659226,-0.6927474814345023,-0.5963098832123719,0.3864663325785769,0.17461724240476664,22.497150897634132,18.933485796864026,9.132812314937274,5.957048670198896,5.918354460987603,6.812423341939838,15.923699936103812,13.959656010557536
67,-35.69318507041273,0.9944927183107973,0.3791438206322386,3.0,7.0,0.0,38.61378220710598,5.115816579870969,10.181436533446444,0.5576860535591657,0.31688471338151636,-1.1686809827641849,0.008072463839980754,-1.1049388915544913,-0.31622497762492113,1.2365229498091284,0.5650944103550725,10.793861739771828,8.342158177584245,-6.783034673988397,5.198005858126274,-6.134048617827747,1.8961920398923122,17.705396515502592,10.869289454306479
68,-39.48122722934425,0.9962689040180747,0.45611429717578444,3.0,7.0,0.0,43.142621674900354,4.465230919060714,6.097809153718232,1.5246291128353575,1.0767757032697574,-0.03941451728534873,1.4735352382705478,-0.9012781272538456,0.09364233301265264,1.2602322250358258,-1.5113851899954862,13.762128279333464,11.031203658960425,4.224888714768729,13.450567583313235,-1.0305910953538113,5.036243994480798,12.149886516694867,-4.75090752728793
69,-41.21926494337287,0.6945667043370908,0.37403654628219746,3.0,7.0,0.0,46.720558479324694,9.9830956895622,1.186260112514807,2.260954252848594,0.5270843099710435,-0.9800221609641534,-0.13670422504119212,-1.3271599882418257,-0.9847404925869508,0.5751494265648557,0.3700839029593215,12.665175535937204,10.608354782413238,8.820534490629859,9.820928920183587,8.408738732585302,8.814937322028117,10.665372513031851,10.422111461926644
70,-38.49443777727145,0.9324845784697885,0.31894884500949744,4.0,15.0,0.0,41.49898891483954,10.050255749017433,1.5877586560383763,-0.9603018062186164,-1.3923133295328183,-0.38054342821986165,0.3246985005126948,-0.7258487056116609,-0.16825755681313567,-0.03932849119255316,-0.059656339955897086,8.525528243784537,7.839598208134088,9.446044626862829,10.565798603809146,8.897783183708267,9.783103356743508,9.987811596697528,9.95553587886489
71,-38.099153031451706,0.9401636330214134,0.3791438206322386,3.0,7.0,0.0,40.077572449067716,11.685804185472794,8.431312230232578,0.241201154001423,0.43719830261838427,1.5564470565862725,-0.9485046628056355,-0.8611204604956396,-0.5844588950711509,0.5174706511262237,-0.8798387223935287,13.719446425151203,15.3719595813761,24.80869528937813,3.6886652215270113,4.425428715192398,6.75804875539118,16.04876081509974,4.267609204724029
72,-42.254256951383134,0.1674559104902512,0.45611429717578444,3.0,7.0,0.0,47.230539239017794,9.983321438539324,0.9996395217789005,-0.6040378242885501,-1.4641748878529393,-0.4753944069988418,-1.4191833274517127,1.1516966379543383,-0.3619774470663538,-0.5138687316225868,1.8325119739929556,9.37950135673115,8.519674353845337,9.508098400870638,8.564649695768905,11.134602914938366,9.621474476459166,9.469637945402992,11.815172831875751
73,-41.193761075561405,0.9932367308408043,0.37403654628219746,3.0,7.0,0.0,45.82869670172144,11.660661155727624,2.261330281368627,1.5899710187378502,0.31203495417748006,-0.3465390868474339,1.0148783022857726,-2.243656478494508,-1.2572816581516617,0.7451541798938979,-0.47591619519885703,15.256110766898049,12.36627524645463,10.87702182496169,13.955636192590426,6.587012819919095,8.817532069939912,13.3457008670101,10.584457452130707
74,-38.31933429475461,0.9803591695150756,0.31894884500949744,4.0,15.0,0.0,43.012461983602925,9.794150223816837,8.258158152615739,1.9954657783599785,1.3624210534809418,0.17596571592271715,-0.43137562158938736,-0.016939548579595953,-0.3291832876955884,1.0574676727398538,0.03524008957391067,26.273022209646,21.0452387539158,11.247302935344889,6.2317821175487556,9.654260752612617,7.0757025728286616,18.526885506581053,10.085168456830537
75,-39.74235545492644,0.8915372097597972,0.3791438206322386,3.0,7.0,0.0,42.6158460629273,11.231856478810299,1.9776632308884512,0.26551292005913735,-0.28556413880080445,1.8094311593631873,0.08288242796530831,-0.4609924609938124,-0.3336278759755277,0.846982760458252,1.3334109867706407,11.75695161813708,10.667106781443621,14.810301951506736,11.39577000908405,10.320168638986058,10.572052895694085,12.906903141364985,13.868894359009282
76,-37.8624200353282,0.833093912941991,0.45611429717578444,3.0,7.0,0.0,46.13670383135582,15.873929146149818,15.103954090893566,0.9224035627489378,0.08525118160680645,0.6575434938231802,-0.3887318412080154,-0.4249542278171471,-0.9282435360109732,1.0491366804173192,0.5753705028047946,29.805870211186438,17.161559079333454,25.805435889620888,10.002541262875425,9.455439998468503,1.8537813930713707,31.720041402245485,24.564298805767784
77,-39.99149508986647,0.979268101342814,0.37403654628219746,4.0,15.0,0.0,46.84572166921887,8.890343191551406,0.7877279820400558,-0.6501897229282347,-0.7607187343269501,0.04120616196984145,-1.3721342776830352,1.1609048993871076,0.6848787971829524,-0.07384856321905488,0.5377636682344756,8.378170553165964,8.291103758059972,8.922802438367524,7.8094746259041585,9.804820465286026,9.429841384398353,8.832170611870302,9.313954680744207
78,-48.15892594515798,0.7906000427075258,0.31894884500949744,3.0,7.0,0.0,49.03448388771073,-8.56761338043759,14.072748381305573,-0.4590730756553132,-0.5595870560853627,-0.3291147937976122,2.079792148496796,1.287840423564868,0.6990814003361808,0.2000564283589773,1.3911843370055028,-15.02803326276687,-16.44254121816243,-13.199163062116655,20.700778210772732,9.555840855664789,1.2703832645442308,-5.752269602079018,11.010173746254265
79,-37.41096238557037,0.8716712908681555,0.3791438206322386,3.0,7.0,0.0,42.93725168940329,8.472495551704604,9.643642765486858,-0.7438005873244241,-0.3215486318345923,0.8557837552136789,0.2105060256292121,-0.24064551564011885,0.08290030376803287,1.3205178937455533,0.7527196927726183,1.2995483987885459,5.3715954145607405,16.725368371492173,10.502540462855146,6.151796165754917,9.271956466393856,21.20709838441985,15.731455371350755
80,-36.36585488601492,1.0,0.45611429717578444,3.0,7.0,0.0,39.68165428264276,13.497968707816613,11.732225664782554,1.3965410273117858,0.23609102546178473,0.7985026662998174,-0.3348175385670452,-0.6862236662586865,-0.8844391617618952,0.3208386794786088,0.39889943052327953,29.88250319036574,16.267841895964196,22.86618218277663,9.569813788821001,5.447037798755273,3.1215288752549366,17.26212049745049,18.177946844268977
81,-37.35996750568295,0.9456492598586185,0.37403654628219746,3.0,15.0,0.0,42.6598700165092,5.855680033072984,10.112823782371205,-0.9681704781668772,-0.4031683177955832,-0.4312688800535491,0.7965814252915739,0.01724141700971027,-0.3476580813132517,1.3530826843843546,0.14530304385470835,-3.935257403922712,1.7785098805712183,1.494333846270858,13.911367615356763,6.030039445050561,2.33987512023479,19.539166783229756,7.325104110617804
82,-36.785257452813845,1.0,0.31894884500949744,3.0,7.0,0.0,49.8803157032984,-1.1916546834698991,12.256317334960025,0.9829576240961206,1.2061887218022327,-0.18745836585200132,0.3430073798200377,0.013366893433623517,0.8065221274550127,1.7329078901174917,0.83775160237303,10.855785884270505,13.59177705678808,-3.489203902445061,3.0123526118376462,-1.0278257957648158,8.693336448285812,20.04741433006612,9.076094803085207
83,-40.88327702963293,0.1051222841602243,0.3791438206322386,3.0,7.0,0.0,53.441767245328506,11.30676148131698,0.6378100080054782,-0.35833952859421636,0.7546501381705177,-0.10753581946705143,-1.502521061962748,-0.8551638531196561,0.9489665972558468,0.5124098954312071,-1.1212852547800227,11.078208943715625,11.788084891984854,11.238174059441825,10.348438510758122,10.761329417312737,11.912021874309664,11.633581640824046,10.59159452398931
84,-36.309202870614776,0.9230790403012651,0.45611429717578444,3.0,7.0,0.0,39.455571063992366,11.464299754111359,13.764607884835494,1.4343686916365699,-0.12982289815425466,-1.5071889992153937,-0.3280162543590932,-0.6994538824678596,0.16524079607060888,-0.12467401873509008,0.8782254573572948,31.20782235677326,9.677338466545109,-9.281565828426167,6.94928463300598,1.8365913284154605,13.738774518601355,9.74821077279621,23.55272880911484
85,-36.6999081499052,0.42334698988046787,0.37403654628219746,3.0,7.0,0.0,41.07816140911081,6.121589141953271,4.345084641872279,-0.33773004458644074,-0.5135068021866007,-0.5078102705716083,0.5816953143280962,-0.24007504666632035,-0.44864809220657154,1.3979672745363594,0.23939828178178896,4.654123512121887,3.8903586222753255,3.9151105343075687,8.649104518489349,5.078442743786671,4.172175206901199,12.195875276381253,7.161794939413934
86,-39.046498487432984,0.7902516782900156,0.31894884500949744,3.0,7.0,0.0,41.798601524422885,-2.3113406953369884,15.768440151541963,0.5414655281641485,-0.9050053598533667,-0.7311627087631476,0.9833019243881823,-0.13818892869727903,0.17483750034595413,0.4046828319296028,0.5792096976298279,6.226726079642446,-16.581863549009498,-13.840636109507987,13.193796850274104,-4.490364547105733,0.44557396511338654,4.069876320301469,6.8218927569316685
87,-41.905411077116376,0.9880216507966463,0.3791438206322386,3.0,15.0,0.0,45.56861322738935,4.358055571913057,0.5704053861776914,0.13803660024574965,0.48332123109983144,-0.3152638497205938,1.8024190729962548,0.042836654713746924,0.20247867027436195,-1.1355879958492032,-1.6966205438561808,4.436792392182889,4.6337446053864335,4.178227373965315,5.386165119299522,4.382489830487612,4.473550496023649,3.710310062601941,3.390294075397767
88,-36.120196396394014,0.7903903593504908,0.45611429717578444,3.0,7.0,0.0,38.504111392057254,8.612385799532706,11.942574428744377,0.5824864107001753,-0.18808199971010348,-0.8589808840720319,-0.043892480273070605,-1.037925004806461,-1.1553231969775588,0.9408812332039228,-1.1613758871003639,15.568773113051716,6.366202519287717,-1.6460573413661805,8.088196587009367,-3.7831108218233194,-5.18514746962669,19.848929955679353,-5.257432171912416
89,-38.63984281078193,0.7617239555453602,0.37403654628219746,3.0,7.0,0.0,43.50630041573149,4.358371375829366,18.571241398458188,0.5424880577747639,0.41541503980325023,-0.6979167162197751,0.8838885101110878,-0.5705045549764451,0.05916596716504269,-0.5702643876859902,-0.8324340345128194,14.433048052545239,12.073144360565642,-8.602808437107317,20.773278266425926,-6.236606433558157,5.457156834624625,-6.232146228831105,-11.100962027400678
90,-38.380316743781066,0.9995552589874948,0.31894884500949744,3.0,7.0,0.0,41.825471077099486,6.013781403126853,11.55020948195122,1.8505863831641884,0.8959642485632551,0.8039362483928139,0.0366853046948476,0.7472741718337881,-0.22994061203277816,0.5752181092457417,1.0132613684666139,27.38844179311968,16.362356162371462,15.299413482197822,6.437504357261551,14.644954628258718,3.3579191657401912,12.657671062727072,17.71716246888481
91,-46.1002108013367,0.919672353592156,0.3791438206322386,3.0,7.0,0.0,50.20621550428878,14.010020630741627,0.6901019296087296,0.5065555730489539,0.4719016446681522,1.8885149421699148,1.773191295337043,0.49983801813597895,0.533695714923619,0.25849068062885144,-2.5862316170709376,14.359595609156766,14.335680866312652,15.313288436428003,15.233703365219123,14.354959811549069,14.378325073434327,14.188405548229472,12.225257201385867
92,-40.595451971677626,0.8537393504982692,0.45611429717578444,2.0,3.0,0.0,41.790776146540416,11.790892234517202,4.754356507344988,1.2299506462035763,1.1470300914970024,-1.268652951946939,-0.5280634771806791,-1.0101733583237502,-2.083271884474633,0.8560508372327684,-1.235275613684856,17.63851609300835,17.24428221414649,5.759263816865844,9.280290205492019,6.9881679548241395,1.8862749939963752,15.860863103132939,5.9179515822300335
93,-35.88149064488008,0.8761066541883885,0.37403654628219746,2.0,3.0,0.0,40.99135766437097,3.8113886475362495,5.743053916507694,0.9949848130540936,-0.1495846202145112,-0.3463858157260697,0.021708667355035405,0.00014048559847040787,-0.8207429737944888,0.5080586193661858,-0.21950500283131252,9.525640075012237,2.952316108563985,1.8220762319079324,3.9360626946117483,3.812195463902758,-0.9021825025603611,6.729196691302715,2.550759581332848
94,-41.782915120447775,0.29662716508751863,0.31894884500949744,4.0,15.0,0.0,45.482874849407395,9.45457034910519,0.37996417847527436,-1.6027140591523494,-1.218220410012646,-0.674712305633008,-0.11839903769080679,-1.3919343654757954,0.16813896032378234,-0.39560045032021224,-0.8799780333614045,8.845596418288595,8.991690231812923,9.198203842188185,9.40958295601674,8.925685151435676,9.518457131034303,9.304256348994821,9.120210218582736
95,-40.01017977758658,0.9973739998187011,0.3791438206322386,3.0,7.0,0.0,50.35970035000563,5.794333633560581,8.101800090153363,1.3909495319889325,-0.3231920652716761,-0.32302321580527926,2.008223309300168,-0.7912826783876037,0.8872155760351257,-0.2963937144992057,-0.7703150928057244,17.063528677227293,3.175896130005664,3.1772641146277403,22.064557421896765,-0.6164804415369014,12.98237686746743,3.3930110107100258,-0.44660525477933355
96,-38.604841140516946,0.9769733051754821,0.45611429717578444,3.0,7.0,0.0,44.25842587134914,6.986964941313094,8.73304496968242,0.6737810725779854,-1.9315348025841201,-0.3060997522656892,-0.037905537064165246,-1.0251424576021229,-0.6621419259624532,-0.1476996005360794,-0.45647807133095586,12.871125347857493,-9.88121535016068,4.313782039568181,6.655934181531775,-1.9656502412569985,1.2044497255708624,5.697097687827383,3.000521416705957
97,-38.0411986864347,0.9371696635398483,0.37403654628219746,3.0,15.0,0.0,41.71423991284295,19.30132234635452,9.137521480378263,1.2067952954375443,-0.5617127982571637,0.2835403382823076,-0.569873602849359,-1.3905767108439793,-0.1367958365481121,-0.5940322002030269,-0.027387047287056335,30.328440280834513,14.168659586476306,21.892178277962827,14.094090059217951,6.594897780903908,18.051347451469834,13.873340356963002,19.05107261348491
98,-39.22816481742542,0.764751871834244,0.31894884500949744,4.0,15.0,0.0,44.669078932134425,7.1358732628755766,4.788026615808559,2.2765318712630553,0.8590984160735902,-0.2584314161866056,0.7938370283816955,0.33016148028772196,-1.0402806543335945,-0.4588439368357588,0.5873966646225462,18.03596845421955,11.249259344634902,5.89849676381301,10.93678608338151,8.716695218007942,2.154981802015582,4.938916280803582,9.948344127125502
99,-36.766871105191136,0.9874588904282381,0.3791438206322386,3.0,15.0,0.0,43.20891873080502,9.959424259234806,4.500568886242237,-0.6521280285075474,-0.6717682184095051,-0.2629187188449117,-0.3899718370215898,-0.3652692036834486,0.5302274257002575,-0.32457194862124594,0.1216173941213699,7.024477144287248,6.936085116694608,8.776140453590726,8.204329143024712,8.315505046034598,12.345749313973702,8.498665845923012,10.506771719243304
100,-38.48983816065225,0.9900526131923241,0.45611429717578444,3.0,7.0,0.0,43.02652438697182,11.67061379811927,7.6805156677018145,1.5516503497764051,-1.0821834521108518,-1.023360026786734,0.7335494196384109,-0.22395040478797046,-1.467581737205136,0.5646607722367389,0.9893648262113827,23.58808862037195,3.358886838854236,3.810681078684011,17.30465160868566,9.950559205357099,0.39882927188217465,16.00749970622015,19.269445846908877
101,-38.663840465276216,0.6827997701145458,0.37403654628219746,3.0,7.0,0.0,42.84228348702851,22.864449640780546,13.770618238579342,1.4301504188079202,-0.3267090338221251,-0.0797961916795375,-0.3838649865404218,-0.8625784579938967,-0.8211085577959218,-0.40482794700690744,0.5316760259761232,42.55850508192877,18.365464260920955,21.765606748269132,17.578391455975,10.986210994924148,11.557277158942444,17.289718530240595,30.185957221102733
102,-40.311883893775125,0.8504403019820114,0.31894884500949744,3.0,7.0,0.0,44.80678015176372,3.077002747277029,1.793242288715306,1.6841091717021939,0.4916181939576162,-1.209453498628717,0.06681138380862278,-1.2725245355924644,-1.0589035754691578,0.6715267153257055,0.3132318656435438,6.097018532786709,3.95859328258367,0.9081595873013342,3.1968117460902405,0.7950579366248163,1.1781320760738956,4.281212851201169,3.6387033749222226
103,-37.07886974716971,0.8053487464438149,0.3791438206322386,3.0,15.0,0.0,41.6742914636328,9.388198019920145,3.956512231244449,-0.6086560343607131,-0.3494391788529828,-0.18861864688975266,-0.9795451289532513,-0.9403675457832852,0.2044996386370308,-0.39842476487860046,-0.37706264189046207,6.980042975351242,8.0056376347123,8.64192603646006,5.512615736160685,5.667622323163252,10.197303341472628,7.811825564447268,7.896345065335186
104,-40.631441032518836,0.9125863237661724,0.45611429717578444,3.0,7.0,0.0,43.871373750265725,9.303173456095829,5.8250959804538605,0.8526078116177274,-0.315362708907945,-1.2853231580560114,0.9660752199394054,0.6534755036618296,-0.8106572656398906,-0.6683557493876983,2.1456045365919194,14.269695792453815,7.466155408051118,1.8160426945194947,14.930654336580938,13.109730985801415,4.581017076491185,5.40993706682432,21.801525817840986
105,-36.769943204860674,0.9879455431814479,0.37403654628219746,3.0,7.0,0.0,41.57828105254153,5.217229905916918,5.772628538111506,-0.4534436098043719,-0.46498894456644885,-0.8296413716631024,-0.4607121802213318,-0.6270345361432073,-0.4832254095806248,0.6527933174122126,-0.7986353798913834,2.5996683835359025,2.5330214546062866,0.42801844745651874,2.557709626515687,1.5975924481951296,2.4277491162311824,8.98556323949914,0.6070045204103947
106,-38.439256253740034,0.9856391992522701,0.31894884500949744,4.0,15.0,0.0,43.88890811235689,4.9558107405719,10.203929378093413,0.7652681250723934,0.7879191825638819,0.09253412221121243,-1.6965583340241557,0.1809748867108103,-0.0998088882091917,1.4671016247510211,0.5836958515584518,12.76455264411656,12.995682435098843,5.900022388678977,-12.355750685626399,6.8024657037774645,3.937367893979288,19.926012110017425,10.911801988160438
107,-42.54481683708107,0.6725757260936033,0.3791438206322386,2.0,7.0,0.0,43.13292636104194,3.50373276430887,1.6111462297360053,-0.8648186503022872,-0.28663816646518986,-0.5959245738186998,-1.6212803529081719,-1.9622526107942264,0.875229109344853,-1.2223517479396881,0.24229790620691932,2.110383456468959,3.041916763110038,2.543611133993836,0.8916130363758086,0.3422568686381191,4.913854843985032,1.5343453542046255,3.894110122367076
108,-37.28664385892293,1.0,0.45611429717578444,3.0,7.0,0.0,42.62135208114311,4.8504812124662475,4.1551416584721865,0.9756279419143415,-0.7191483601326615,-0.0006654207346223906,-0.6653866124640507,-0.8715790133991961,0.6275592446679714,-0.21402773045205636,0.04032420364808764,8.904353517084012,1.8623179026570673,4.8477162950514066,2.0857055800271818,1.2289469452411597,7.458078773145475,3.961165673596652,5.0180339908891325
109,-39.37940527147663,0.9118669055667536,0.37403654628219746,3.0,7.0,0.0,43.32552385280251,11.158790517665203,2.0934213779534634,0.3287896130695082,1.5289245326136731,0.7383407785431161,0.4653058676889635,0.5647448863508201,-0.9379470194354547,-0.5517147163603182,0.20994360643588617,11.84708572251396,14.359473819516174,12.704448887682165,12.132871768372464,12.341039535841908,9.19527217579129,10.003819135904982,11.598290951542735
110,-38.69355779380859,0.9024644462903105,0.31894884500949744,4.0,15.0,0.0,46.488634029365514,6.068408560860322,3.991811608273008,-0.31988511447672374,0.18460760679994911,0.8132104965759938,1.3741795218237423,0.26015027675511493,-1.1339078704470218,-0.6863920800693166,0.3062188227941441,4.791487447578397,6.805327348659858,9.314591661061831,11.553874327927389,7.106879455506826,1.5420619608977741,3.328460687812968,7.290776412361682
111,-45.072685075701635,0.9529430186070333,0.3791438206322386,4.0,15.0,0.0,51.98395292269394,14.532670531984383,3.605635737437391,-0.030478143196161656,-1.7759215335754392,0.9280818046722447,-0.0948605186445125,0.33084771207082103,-0.36237540706942567,3.1215633642306706,-1.0515763352126135,14.422777449665569,8.129344383640163,17.878995454176017,14.190638055887883,15.725586866276332,13.22607681388644,25.787890954729782,10.741069317098342
112,-40.68278272457428,0.8785959725544318,0.45611429717578444,3.0,7.0,0.0,47.54858161717153,14.36045555275226,1.8322606470002203,0.07877653361971493,0.31690141738179667,-0.43549687260077574,1.77839493646406,-1.1761702941377754,-1.319915845711145,0.10864371357320668,-0.2638607815832445,14.504794695210753,14.941101548799518,13.56251177119419,17.618938609659814,12.20540500863294,11.942025691303714,14.55951915367641,13.87699382637056
113,-45.038558033641976,0.8769045063581021,0.37403654628219746,3.0,7.0,0.0,48.40643254337309,3.1568815564903914,1.9046555951860027,-0.3191189715081425,-0.7297044033800651,-1.8235097747708313,0.07200555059173477,-1.1156694508425689,-0.718214104703248,-0.7905304616750215,3.083165996054299,2.549069821877405,1.7670459817606865,-0.31627653890324003,3.2940273313093877,1.0319154945649975,1.7889310434258445,1.651193289496088,9.029250921762438
114,-42.603001388644486,0.9154076316166011,0.31894884500949744,3.0,15.0,0.0,44.535517488936215,9.430357681421192,0.6259019185349772,1.8444608414027073,1.1342346752959878,0.048589791143443695,-2.110562789556587,0.3285148359883565,0.5527412009303343,0.6472654406022295,-0.4596696202794065,10.584809260717785,10.140277340757848,9.460770124919087,8.109352382249192,9.635975747533507,9.776319459536817,9.835482362495515,9.142649584196068
115,-43.20487061043104,0.9950041215020562,0.3791438206322386,4.0,15.0,0.0,49.947121064379886,9.626173864279565,0.72916183867081,1.2194645428906592,1.073074397506513,-1.173650070762112,0.718275927409118,0.30938558139983363,1.5146149048589521,-1.6464510869947475,-1.2548811487834683,10.515360872567577,10.408618764995985,8.770393020726537,10.149913260182178,9.851766023671304,10.730573253184733,8.425644562404921,8.711162418519272
116,-39.21186469770527,1.0,0.45611429717578444,3.0,7.0,0.0,44.024616920249,9.07593444556898,6.163477544821904,-0.2505701142618602,0.4798588406208032,0.013876836829444877,1.1053037681823765,0.7017046312469074,0.04764617655010972,-0.8522836751574979,1.228568816345042,7.531551172912545,12.033533634419573,9.161464017760421,15.888449400968092,13.400875183356828,9.3696005848322,3.822903151917455,16.64819075738007
117,-36.06859193376886,0.9564169022373132,0.37403654628219746,3.0,7.0,0.0,46.28712094086257,9.162009389754829,5.588791211674018,-0.200790913713304,-0.74610070821803,0.1027657656073766,0.22638614714107821,-0.7333078810209185,0.504630028092379,0.4139794229280489,-0.2872355328538385,8.039830895809919,4.992208308642142,9.736345797442286,10.427234299341627,5.063704748853823,11.98228125590433,11.47565395042899,7.556709968060792
118,-41.68224435581915,0.9905977671861742,0.31894884500949744,4.0,15.0,0.0,48.50900267553486,5.984231854016631,0.18485534129463868,0.5745488247054443,-0.24590950401890455,0.19570320463476926,0.8084199182423676,0.5843765347909101,-1.180256799529086,1.0486654803798459,1.3850627996128129,6.09044027309799,5.938774168723621,6.020408636701846,6.133672593912708,6.092256977799983,5.766055080524364,6.178083269296153,6.240268110553565
119,-43.59317688129942,0.9886662368337791,0.3791438206322386,3.0,15.0,0.0,46.72425005142241,11.337487818453491,0.5753728241209277,1.4676635219523237,1.0355825222345292,-0.516319397460091,0.7115631100814501,0.45369516513547087,1.6454299688205856,-1.4111034416144634,-1.4255556786573034,12.181941523938466,11.933333858881845,11.040411668588463,11.746901894641326,11.598531686907497,12.284223506507,10.525577246125017,10.517261821682812
120,-39.878034644501106,0.8931496137002268,0.45611429717578444,3.0,7.0,0.0,45.94128869620663,9.532442627389711,4.812510894416891,1.776283959047217,-0.3346799673550326,-0.09727486607661781,-0.8243495976999597,-1.0483823329292739,-0.2211128959076088,2.0597902698463675,-1.435087518388353,18.08082853188241,7.921791638350528,9.064306274643045,5.565251207650474,4.487091228653385,8.468334406938276,19.445205741239263,2.6260683107040625
121,-38.05869936495567,0.8487970115616625,0.37403654628219746,3.0,15.0,0.0,40.4876236370285,3.446407260659687,2.147498633593497,0.06958645287596903,-0.16988170212205567,0.3287679713827004,0.702228843878059,-1.1258694762885217,0.804054961337292,0.6491022302785814,0.2967565441966424,3.5958440731274486,3.081586537480035,4.152436029973342,4.95444274335776,1.0286040987254603,5.173114191465594,4.840353413245432,4.083691533831905
122,-43.9762114675741,0.9523903318001475,0.31894884500949744,3.0,15.0,0.0,46.78332144723799,13.174372620794202,0.018135515866515486,1.3590210150637143,0.2715755342672508,0.51615249101142,-0.031234936411253883,0.35992520811788703,-0.6150822689808156,-0.07345952714689796,1.1679518334301873,13.199019167975818,13.179297783204863,13.183733312484481,13.173806159109326,13.180900050116783,13.163217786545887,13.173040394374082,13.1955540298007
123,-37.43747759933484,0.9989294002209268,0.3791438206322386,3.0,15.0,0.0,45.06343636163155,6.9258226587119065,7.335736295873542,-0.054095005443583255,-0.8777788157818212,-0.06962601725281237,-0.03121542942027758,0.6103471454114257,-0.31972640702155253,-0.7285052907340526,0.05750188699480535,6.528995963853936,0.48666874003230554,6.415064556813333,6.696834500122297,11.403168366389309,4.580394049974666,1.5816999557382099,7.347641338220919
124,-42.967677819280965,0.8317523436051696,0.45611429717578444,3.0,7.0,0.0,47.188728975351744,5.047832601089695,0.955126687570514,-1.6368036024175225,0.8928831949879015,0.4088608654964321,0.9183275128097004,1.528334406689212,-0.8537836157112269,-1.6453742384044514,0.46363104055497895,3.484477798109162,5.900649169505867,5.438346525228516,5.924951716504493,6.507585580450809,4.232361084313454,3.476291754948594,5.490658981109843
125,-40.522789673851165,0.9623684804422342,0.37403654628219746,3.0,15.0,0.0,42.61394515591714,13.790249157452457,2.6981520481638746,0.9820795397927512,0.7350733042170972,-0.427867595503559,0.1339088267444693,-1.233031236164612,0.7846333643272627,0.9221267127855383,-1.704507052257092,16.440049079204105,15.773588698776406,12.635797328301578,14.151555532600268,10.463343402144876,15.907309276469773,16.278287236221377,9.191229963295218
126,-41.5685297438735,0.9907777846281522,0.31894884500949744,4.0,15.0,0.0,46.15628779889619,3.9290544584117937,0.17699588840710728,0.5863341511647212,0.1401296548657675,-0.4697326836721453,0.66266847201263,-0.5060830201338751,-0.17534296535647245,-0.21270973218677233,-1.8534767612074543,4.032833192400621,3.9538568311669415,3.845913704751388,4.04634405333505,3.8394798446554463,3.898019474482588,3.891405710390558,3.6009966924199523
127,-37.48803832200433,0.9437983230758158,0.3791438206322386,3.0,15.0,0.0,41.255399559483116,7.138439377428943,13.363263886437885,-0.2983886106630719,-1.0287797527292473,-0.06077530573434518,0.03023036177512784,-0.014980873975519948,-0.33257418481522727,-0.4939787949391699,-0.22139323764319968,3.1509936324307404,-6.609415939316303,6.326282929121947,7.5424156792124615,6.938246005244601,2.6941627839260978,0.5372703863522288,4.179903120130012
128,-40.10989225777882,0.9554182120537231,0.45611429717578444,3.0,7.0,0.0,46.65824501148003,11.993596814459535,10.593219395258336,1.8083233456327252,-0.23336893175217382,-0.24980568265274883,-1.2821094513685383,-1.9291666057198749,0.1340187459291629,1.3357392548470495,0.9237523399469969,31.149562752314566,9.521468520371688,9.347350411936688,-1.5880698926216894,-8.442488289936934,13.413286793164541,26.143375795913215,21.779108018401335
129,-41.68954838146008,0.9741438859776093,0.37403654628219746,3.0,7.0,0.0,44.30683344877218,5.57261413455431,7.764212915863041,-0.5750797682966484,-1.7299741523662682,0.7826021300820643,0.18984110311780156,-1.2228502470686995,-0.34241539457417736,-0.8354566002813173,1.2404297403146294,1.1075723698939468,-7.8592735233570865,11.648903700919401,7.046580879343232,-3.9218555479027986,2.9140281054111425,-0.9140487919929203,15.203574745525792
130,-37.67767298852952,0.9293501879737496,0.31894884500949744,3.0,7.0,0.0,45.895271723742894,6.71238877168134,11.048133668412783,-0.3212222030610654,0.4777060950476609,-0.22090640354671948,-1.1411348303393474,0.3008538434759542,0.4381255956205089,1.3291266997756164,0.11496011593002986,3.1634829350006552,11.9901495639834,4.271785297088847,-5.895021367589312,10.036262249059419,11.552858915649688,21.396758213058696,7.98248349901254
131,-36.23363110273996,0.8890341810234338,0.3791438206322386,3.0,7.0,0.0,40.4286883877786,11.351313953753438,7.5681847816386805,1.0273907347271718,0.45205317288590624,-0.7020554929899545,-0.35187644903291043,-1.2096162073627272,-0.5507131270749751,1.1429993376217307,0.7189621889802418,19.126796877112202,14.772535897280033,6.038028255841023,8.688247967165507,2.1967149815673483,7.183415246375963,20.001744146165315,16.792552650967338
132,-41.486568363463846,0.4404819391219214,0.45611429717578444,3.0,7.0,0.0,48.60174037484855,8.73407954936307,2.1968055071343384,-0.3266760639127332,0.07630786198797171,-0.4616753320397219,1.104442783621567,-0.9485971569719669,0.7138269261964879,-2.3668683420164136,-0.81356636869429,8.016435773110608,8.901713080815894,7.719868637430135,11.160325538737707,6.650196090875077,10.302218471972292,3.5345301409594923,6.946832470196168
133,-42.045364329483846,1.0,0.37403654628219746,3.0,15.0,0.0,47.14610758432774,10.891993538473132,0.35094445197295243,0.560129991661501,-0.3979502563272429,0.9269263223144775,-0.684097922004484,-1.4570663097682732,-0.8270271891280807,-0.9408495424933463,-1.4112993995122067,11.088568051430393,10.752335103853872,11.217293188677091,10.651913168139433,10.380644200903253,10.601752934817846,10.561807611393801,10.396705844141565
134,-40.756246949280765,0.9062783913499716,0.31894884500949744,4.0,15.0,0.0,42.67750724297573,7.759529428217914,5.841099552486931,1.2207164390052079,-0.7406459587876031,0.1953100330569835,2.2892020780307822,-1.356026201421365,-1.5636514989661607,0.46832008033607775,0.2415188025653286,14.889855673804673,3.433342649792392,8.900354774903269,21.130986661755667,-0.16115461006497434,-1.3739146426388453,10.495033639889622,9.170264797799435
135,-40.24103142677177,0.9029797606230028,0.3791438206322386,4.0,15.0,0.0,42.09669579029235,8.1869042370399,7.509554409053981,2.137119508334108,-0.9288331693533048,0.8918570251796922,-0.28500808251300425,-1.4824686484724354,-1.5864112116330953,0.11903896046767809,1.1230704875144983,24.235719463525577,1.2117810148472072,14.884353092723826,6.0466205343883495,-2.945774738380573,-3.726337071852079,9.080833787469155,16.620663168232806
136,-41.673001328517564,0.9342244889814398,0.45611429717578444,3.0,7.0,0.0,47.71658798839173,2.113463784696728,1.4450756834378164,-1.5924961597386353,1.9899476528849975,0.22882422413820827,0.08529585752585811,-0.43048939184330426,-0.9322566890567284,0.7412173032906355,0.3282413260319141,-0.18781369170967865,4.989088749194995,2.444132106780377,2.236722754305322,1.4913740325660352,0.7662823126186002,3.1845788858253785,2.5877973432448313
137,-41.17941352681335,0.9672053489794886,0.37403654628219746,3.0,15.0,0.0,44.9732043016419,4.987792517255434,0.6647127432219015,0.9472217244750528,-0.4912828466410458,0.11781192114752537,-1.5883202152061473,-1.139992873562336,-0.7043516123612028,-1.2047332687524168,0.3392434848773571,5.617422868170626,4.6612305485668,5.066103602545648,3.932015829890955,4.230024727016395,4.519601024810049,4.186990961332326,5.21329198470842
138,-41.69088295329239,0.9947947041036862,0.31894884500949744,4.0,15.0,0.0,45.03189412175526,7.3855067234323775,4.815881488208834,1.2387673645797084,-0.16086110816665833,0.38035544497439455,2.517402402633251,-1.3483091844307602,-1.7481789187102197,0.6423930289402414,0.5908690994016491,13.351263542709038,6.6108186904398085,9.217253469823998,19.509018352646294,0.8922094817503288,-1.0335157692611068,10.479195419660089,10.231062281195404
139,-37.490426280939516,0.9994566143156044,0.3791438206322386,3.0,7.0,0.0,42.877550997450236,11.04505398622292,9.59609366850225,0.6627799001512317,0.6869221285615742,-0.41629990025623553,0.4030661563543173,0.13014156599777443,-1.2851564804999214,1.2888542329443855,-0.7281215827120089,17.405151989674707,17.636823074866733,7.050201149175939,14.912914577202121,12.293904643703131,-1.2874279793370125,23.413019930602864,4.057931076460373
140,-39.44136179472164,0.8459116876928324,0.45611429717578444,3.0,7.0,0.0,45.55590405135503,10.16442649834271,2.729582892393995,-0.7831212541786479,0.06416043300825325,1.1188507364111882,0.5022579879810596,-0.31400699422784756,-1.0391633664286997,0.40932525725982205,-1.6829692212214975,8.026832120266544,10.33955771865063,13.218422327593112,11.53538130990404,9.307318378806318,7.32794395093638,11.28171371798389,5.570622503670866
141,-39.050375563183024,0.9893123842868755,0.37403654628219746,3.0,7.0,0.0,45.45950792147609,6.336849957082071,11.820148022696761,1.2027408710448575,-0.5853284365843312,0.3224357998864065,0.6239185173985066,-0.7610514015074974,1.247884300396488,1.6780706084229644,0.6209720465507422,20.553425085779523,-0.5818188052383979,10.148088839556028,13.711659186833923,-2.6588902616173726,21.08702710296795,26.171892941178328,13.676831465268789
142,-44.51067464695973,0.926294560812303,0.31894884500949744,4.0,15.0,0.0,51.3642452239544,3.47680266035635,2.787277267305722,0.6106792630288802,-0.753015876998387,1.419589914618629,0.4443970798332786,-3.237795562279945,0.928248218991305,0.10728758204564914,-1.0494166635692275,5.17893508781176,1.3779386244784644,7.433593358269325,4.715460538632694,-5.547831306569888,6.064087819567838,3.7758428988563857,0.5517874500580255
143,-40.89166768231736,0.8249129759680002,0.3791438206322386,3.0,7.0,0.0,44.043529047181835,4.117057484904631,1.3187879801440845,-1.2238321953211813,-0.1905117926714739,0.5050106671336645,-0.11104479979474716,-1.150524134962783,1.5956797073946678,-0.8349012305683923,0.6859046510660978,2.50308229600171,3.8658128226537896,4.783059482565053,3.9706129376778123,2.5997600848500424,6.221420703176548,3.0159997774235308,5.0216202942555235
144,-39.340541244013394,0.9442862954433693,0.45611429717578444,3.0,15.0,0.0,43.95630854898202,0.703172457049889,5.365783388564894,1.3143816513191697,0.4576230486188673,-1.2408984878868272,-0.0968458069939303,-0.18789990000776036,0.6168214546899252,0.41367297927985697,1.9476320138597325,7.755859687932784,3.158678609553432,-5.9552200361485434,0.18351883462969598,-0.30505770512475605,4.012902772335523,2.9228520575678947,11.153743964055632
145,-38.78426511399236,0.9129097188056664,0.37403654628219746,3.0,15.0,0.0,41.613109375692915,9.202111709602649,5.057835846388593,-0.14578811416926019,-0.07806105702318458,-0.7815175495255513,-0.3105333874027917,-0.5955300049583133,-1.13886492244985,-0.9156300534101427,-1.8253888865399646,8.464739359779973,8.807291697183802,5.249324233030544,7.631484811296334,6.190018702924515,3.441919880641233,4.571005203434128,-0.030405634338544374
146,-44.95018947441894,0.9865798004337242,0.31894884500949744,4.0,15.0,0.0,53.78612286794113,6.532376778800016,0.6371369849865217,-0.13723445206389506,-0.15188518000729978,-1.664284830928194,-0.8703409353445188,2.638325817408101,-1.7986734911300901,0.20960966253533064,0.9498521995283614,6.444939633775748,6.435605113146029,5.471999359463624,5.97785037934426,8.213351735515513,5.386375373686209,6.665926847211819,7.137562745390332
147,-41.074037016776366,0.8168644450982723,0.3791438206322386,4.0,15.0,0.0,47.805354807075084,9.962350787870513,3.1569932146823945,2.066065544833083,0.043824590693272825,-1.2281905931477979,0.0020920917415606644,0.3744774546856689,-2.06568368163419,1.2261543500651075,-0.5450797334966287,16.48490569399764,10.100704723325409,6.084961418966169,9.968955507303113,11.144573571364703,3.4410014212712277,13.833311751179359,8.241537767760768
148,-39.499348151116074,0.333364331192389,0.45611429717578444,2.0,3.0,0.0,43.69440727443768,2.1135815680552135,11.044401884392583,1.621388753199615,0.6790165155068093,-1.4550824587184927,0.3678927423954916,-0.6098440028966319,0.8959832435132289,1.3836993130924056,1.9186113508741265,20.02085056922598,9.612912851452304,-13.956933880961902,6.176736865422336,-4.621780686721864,12.009180591096897,17.3957128690057,23.303496387066414
149,-35.884853781057664,0.9999193493983383,0.37403654628219746,3.0,7.0,0.0,39.45105222676692,10.179284454770919,8.125783616919081,0.03354488052691859,0.37940368025370974,-0.6097941037341807,-0.5929129574641261,-0.4785018083674328,-1.3357163451466723,-0.12714848131508033,-0.4726553648464804,10.451862895388063,13.262236663975319,5.224229516953858,5.361402058749883,6.29108229967268,-0.6744575394729431,9.146103408384697,6.338589234652478
150,-40.94523864867523,0.6909378070258559,0.31894884500949744,4.0,15.0,0.0,50.80902604172316,9.104906917319694,10.489180648515921,2.866208821112812,0.79479620578142,-0.6785259125701845,0.05775007879292163,-0.04681883590774871,1.105421317138819,0.3946990022322928,-0.44746026457681687,39.16908901834183,17.441667898516044,1.9877260456719092,9.710657926244677,8.613815689730094,20.699870805509175,13.244976053523203,4.411415369140732
151,-41.099190517236174,0.9589456106711041,0.3791438206322386,3.0,7.0,0.0,46.32370557796597,7.090134303981469,5.772462531191172,2.460089849281178,-0.06937705032632546,-1.6812693371124299,-0.19925278814150205,-0.9099823278796633,-2.110772899143108,-0.12426979053463627,-0.19872579470955865,21.290910782320804,6.689657880448191,-2.6149299493406515,5.939955050199276,1.8372954122499934,-5.0942231681758825,6.372791594361306,5.942997100039353
152,-38.975278783962565,0.7282478119053162,0.45611429717578444,3.0,15.0,0.0,44.26481176809946,18.158977856386315,12.411618212344687,-0.02336796343834835,-0.8662196509439719,0.5919588821459132,-1.00104714151827,-0.6123682875613432,-1.8680749841179436,-0.43929947409656445,-1.176914096352956,17.868943615789505,7.407790260839256,25.506145498987735,5.734362923302566,10.55849646582762,-5.026855638517464,12.706560503015954,3.551569423726775
153,-35.336752623044916,0.9275870958673477,0.37403654628219746,3.0,7.0,0.0,40.44093713183389,10.68321252910426,11.408846816689525,-0.21029298825609383,0.12283254950484734,-0.21490430967906543,-0.9448012118579403,-0.1507584218178597,-0.646427968847395,-0.07412078418298737,-0.05409593535706697,8.284012039466596,12.084590270508496,8.231402179729395,-0.0958797692056077,8.963232788258434,3.3082148545005827,9.837579856427654,10.066040289209944
154,-38.67947728690351,0.971928857981543,0.31894884500949744,3.0,7.0,0.0,44.140949691970725,5.19000340675316,1.1979854628924593,-0.6376751749124309,-0.5120329201512466,0.05344671726433897,-0.7243268226232404,1.1051052185119974,0.22566041988477298,-0.3876806369881024,-0.25445160080906726,4.426077817160661,4.576595411889591,5.254031797075162,4.322270402867433,6.513903393497127,5.460341309325327,4.725567639396525,4.885174087974182
155,-38.22271780957659,0.9948028543869079,0.3791438206322386,3.0,15.0,0.0,43.93614409093938,7.8868105165327345,15.418332785349838,0.17062114915558135,0.045604341481508895,-0.09084142848350119,1.3232580114249832,0.33215413890195594,0.27877661431685175,0.6026159571900952,-0.7456800011311566,10.5175041744323,8.589953429951372,6.486187141477556,28.289242897563383,13.008073566154405,12.185081128843077,17.178143886251753,-3.6103318922874825
156,-37.682053394981374,0.4288994715082633,0.45611429717578444,2.0,7.0,0.0,42.21727746721453,14.989929210604659,7.762596456358916,0.03224783527864979,-0.8757326558622878,-0.2023176269094058,-1.0090922697452276,-0.46604325589569723,-1.4108145585716247,-0.17640336739644663,-1.3891816875145728,15.240256142463952,8.191969999490283,13.41941911689876,7.15675313334118,11.372223483878749,4.038345117656997,13.620581055963223,4.2062723658653365
157,-36.379138462925795,0.9102212172103646,0.37403654628219746,3.0,15.0,0.0,40.14028609340252,17.087972022706424,11.647261670757427,0.04223124680863227,-0.35304839000361427,-1.4940361280409622,0.06354332560790321,-1.5552231366437086,-0.2612970373832317,-0.1587090630850695,-0.48810292475537115,17.579850404968905,12.975925041894708,-0.3134577061519117,17.828077763491812,-1.0261188061989834,14.044577054510238,15.239446035433872,11.402909535818594
158,-41.28330814555534,0.9567854444095597,0.31894884500949744,4.0,15.0,0.0,44.873182990813746,10.557159956590876,5.06071519434551,-0.9815689434005023,-0.7492416629017896,-0.9374256810543298,-0.7621025637639434,0.094100227188745,1.1235700666728452,-1.2747503409312129,-1.4669726635030371,5.589719090426286,6.765461288907092,5.8131155689095415,6.70037593250102,11.033374406116323,16.243228064913943,4.106011537243168,3.1332291087115527
159,-48.93977102085376,0.2423862613144323,0.3791438206322386,3.0,7.0,0.0,51.14035350465277,8.581577433423139,0.19261739836418204,0.03540225201541462,-0.8817640956903826,-1.0933793128516471,-1.4519973862546918,0.023646323188341756,-1.599934523967809,-0.0031520950443698903,3.7311195217893243,8.588396523102581,8.411734327340312,8.370973554756437,8.301897474451167,8.586132126676555,8.273402207863423,8.580970285076296,9.300255968696009
160,-37.2976185252392,0.9462762225744074,0.45611429717578444,3.0,7.0,0.0,42.19787040891076,15.346729349100757,20.153630643715676,-0.5158822610812039,-0.2799708604849102,0.017063070525309317,0.341072843943389,-0.1904472510096927,-0.4583541444010899,0.7962448540050248,-0.45094078129227455,4.949828803625275,9.704300035884625,15.690612170115513,22.220585468537497,11.508525795140404,6.109229218824872,31.393954038677336,6.258635400747684
161,-36.910085367181246,0.9668429401288087,0.37403654628219746,3.0,7.0,0.0,38.564778982615245,16.79270794881866,9.039108719464442,0.1499922925082821,-0.5675000317498706,-1.4475703946173806,0.20544759861863626,-1.2799333385979768,-0.09745622675079915,-0.4670568126333087,-0.12974587525067133,18.148504587882734,11.663013463532057,3.7079617727941105,18.649771128885405,5.223251347564453,15.911790519829406,12.570930641259647,15.61992087652577
162,-41.281046483272455,0.8109409010761641,0.31894884500949744,4.0,15.0,0.0,50.084778410974515,5.770193677642705,1.3110463465480753,-1.856142545687672,-0.7702433067003572,-0.39072391613526647,-0.6237095517448572,0.7789275410857932,-1.4153071572406795,-0.8537725046374793,0.1252958327970679,3.336704774446439,4.7603690044400935,5.257936514884608,4.952481548520472,6.79140378460891,3.9146603998989704,4.650858354654538,5.934462321469
163,-47.46696764403095,0.8628424986174298,0.3791438206322386,3.0,15.0,0.0,54.98074497065063,9.755837071786507,0.5720137324720994,0.14882908707590078,0.8148387854317678,-1.2886268608651572,-1.7271249231492003,-0.18717540011494305,-1.8327227769855197,-1.143582965404287,3.1068648478105283,9.840969353385209,10.221936046804364,9.018724811339224,8.767897898050345,9.6487701725398,8.70749447553639,9.10169191135409,11.53300642966897
164,-38.10310023511692,0.9849897788961509,0.45611429717578444,3.0,7.0,0.0,39.785068418267564,8.378718311971893,4.983033677161943,1.8833720270066459,-0.08489622576856903,-0.9183976989135403,-0.9868902808958716,-1.2382631579479815,-0.44232105969765967,-0.21792843855832672,0.8247243530818401,17.763624549170764,7.95567755990317,3.802311649257687,3.461010806603955,2.2084112947282026,6.174617575380497,7.292773563424434,12.4883475377543
165,-34.78005163221427,0.9766543932568214,0.37403654628219746,3.0,7.0,0.0,39.690391473621894,8.623308745812798,12.585161238064062,0.9044148877974959,-0.0741608189072328,0.36208871933234776,-0.6144267447746611,-0.4098942179913067,-0.8262615681671808,0.973061220228089,-0.1948430390265981,20.005515934849903,7.689982882318403,13.180253661094518,0.8906490938448526,3.4647239218420243,-1.7753263143868327,20.86944109689066,6.1711776835486525
166,-39.77667996504003,0.9937717632221463,0.31894884500949744,4.0,15.0,0.0,45.86264990476586,9.685541786522716,12.107396296802955,2.1409667459566863,0.871968477230303,-0.3120313960636033,0.38403865867033693,-1.2803811614606353,0.980856398943238,0.8198162105055358,-0.0034789691893478136,35.607074638096975,20.2428096986698,5.9076540173359895,14.335250020337128,-5.816540346242046,21.561158918783555,19.61138153765647,9.643420527842915
167,-44.38373031057328,0.9997588784119922,0.3791438206322386,4.0,15.0,0.0,53.78617547301873,6.957437403163977,3.4225257797137667,-0.14673095438157535,-0.23075560054032696,-0.28032497579161075,-1.2438194471424433,0.5138329007991062,-0.04054455920350275,-3.263449421669171,-0.43713817374957875,6.455246929111031,6.167670411501376,5.998017946819552,2.7004332800096407,8.716043752614025,6.818672604062858,-4.211802373290745,5.461320734209048
168,-37.969944135131506,0.9351870303355918,0.45611429717578444,3.0,7.0,0.0,43.043211379646614,9.768167811435275,3.591383551534527,-1.283964841290542,-0.29137476139213425,0.4879050872650732,0.6539425437010525,-0.11393239322963467,-0.3801997059796913,0.6997687689943657,-0.749846726775633,5.156957599675783,8.721729286039267,11.520422116549076,12.116726306531884,9.358992888403401,8.402724841081548,12.281305858279204,7.075180610721262
169,-36.747861644686765,0.8517977396009632,0.37403654628219746,3.0,7.0,0.0,39.08403562979727,7.342496767721633,5.073010346235654,-0.2849821618484405,-0.15387169548701662,-0.40640700982689965,0.7361426038730092,-0.5591126251859033,0.8944768895342858,0.11443766295539345,0.7016891808717858,5.8967793121718906,6.561904064523175,5.280789802087075,11.076955813474264,4.506112635442568,11.88018728279775,7.923040215893372,10.902173242125823
170,-38.38956413282652,0.9620033840705641,0.31894884500949744,3.0,7.0,0.0,41.809219496968076,9.708978073211316,3.300240574170179,1.4167722265100235,0.6198700030132009,-0.28152408096140424,0.34281940979923575,-1.2123991909880538,1.2429459362821413,0.40031857075252897,0.15159923463152375,14.38466725949712,11.754698207866474,8.77988087861652,10.840364599043827,5.707769071021441,13.810998683629581,11.030125663002629,10.209292018355416
171,-44.94724995137723,0.9236858222667954,0.3791438206322386,4.0,15.0,0.0,51.59570950069096,6.038020395213272,4.431676724975465,-0.49807090951359057,0.013727783691300038,0.028351942249745854,-0.8932740026326944,0.4172642723219552,0.9294938426191222,-3.0736214949296428,-0.6221777914594597,3.830731138134532,6.098857494683505,6.1636670377893195,2.0793187887202884,7.887200759026305,10.157236623556443,-7.58327644525072,3.280729558005746
172,-37.88066573983882,0.6042789167511636,0.45611429717578444,3.0,7.0,0.0,43.80751223814428,4.8378308514338375,5.095344813835721,2.17954190300797,0.3354135723773196,-0.7482249950203428,-0.20896596674714568,-0.5026730607866574,-0.41098919726584576,0.48868466640117364,-0.987299748696502,15.943348383463137,6.546878657936725,1.0253665034746753,3.773077196500601,2.2765382780996144,2.7436991766028043,7.327847731982097,-0.19280180278819525
173,-35.32137486877074,0.9984522355554432,0.37403654628219746,3.0,7.0,0.0,38.471488985744266,10.814613249071336,7.968769329111418,0.5462553600702774,-0.5223096498676675,-0.40517178561842887,-0.9385893983260218,-0.8808275561045714,-0.18281069947540718,-0.07791644629087394,-0.4279841189402068,15.167596208262076,6.652448130906944,7.585892750813892,3.3352108390617934,3.7955016357490603,9.357836954058307,10.193715061635261,7.404106528713842
174,-38.10262833117953,0.9895995889209918,0.31894884500949744,4.0,15.0,0.0,42.56460577489817,8.94214897388226,2.613263923224413,0.10529933610085063,-0.2739342183427101,0.04169128745927037,-0.0910502964021481,0.5850539696046511,-1.907891596273068,0.4369433888127064,-0.010415717558373965,9.217323930054095,8.226286563750577,9.051099311312349,8.704210519095637,10.471049405789326,3.9563246959188145,10.083997368357922,8.914929954952466
175,-43.438052580440804,0.6617568483530206,0.3791438206322386,4.0,15.0,0.0,50.34859323036859,2.9658208450137034,0.18040052766387735,-0.5282953431784011,-1.2255947067960105,0.6267094625329193,0.023456880348336262,1.0654697257379238,0.3573134193681449,-1.5372644288422137,-1.4443013430461653,2.8705160863419508,2.744722913205648,3.078879562746587,2.9700524786058917,3.1580321457467115,3.030280374409101,2.688497530891659,2.705268120622528
176,-41.00707405882947,0.9661427195034611,0.45611429717578444,3.0,7.0,0.0,44.11265991741456,6.939045473526207,10.971109933947448,2.618322126009992,-0.3476236603762726,-0.3007353750795325,-1.8242945455321402,-0.4439196274158808,-0.38403365805799644,-0.3246255502183575,0.574325708630576,35.66494536046883,3.1252280798969085,3.639644612501736,-13.0754905374076,2.068754439309587,2.7257699926359447,3.377542874712429,13.240035960804526
177,-35.03352123104989,0.9994774162376505,0.37403654628219746,3.0,7.0,0.0,36.49982959117127,11.449746865960089,10.814464624134237,0.6803997301910412,-0.425213405786269,-0.3270243515819913,-0.8364108970609185,-0.9213563967109851,-0.19052295221784626,-0.4288136459799189,-0.12544811326106597,18.807905678381584,6.851291531376846,7.913153584546206,2.4044108084544025,1.4857707075093494,9.389343139114573,6.812356861164234,10.093092682933905
178,-41.29648564099992,0.9238750866598984,0.31894884500949744,3.0,7.0,0.0,44.972547185630575,12.208264722170542,4.616295868068795,0.3192712687696362,-2.442513781104547,0.29768521826479855,-0.35505438435278275,0.8124238838619271,-0.877666307344452,0.7756608177539374,1.1352952339130535,13.682115360984895,0.932898446756532,13.582467765231488,10.56922863474308,15.958653740362758,8.15669737403315,15.788944550190905,17.449123419521566
179,-41.27815545722329,0.7907810566995493,0.3791438206322386,4.0,15.0,0.0,49.38204467877337,13.811352885860453,4.371574989645225,1.1720240206727077,1.6353096395634281,-0.8594791726099295,0.246493156058049,-1.7190858306630175,-0.4525984260330994,1.1171751445049056,1.3649508596603572,18.9349437818967,20.960231606501683,10.054075230757913,14.888916202002537,6.296240263480519,11.832784926261361,18.69516780663139,19.77833792604642
180,-40.15097154130179,0.991128713034298,0.45611429717578444,3.0,7.0,0.0,45.60765059204765,6.199503013815928,4.707029238605651,-0.29667989245967397,1.103521933479458,-0.9490624016829925,1.700540068300839,-1.1569347257248852,-1.4951024702878732,1.3707865198153244,0.25241890956422164,4.803022085501862,11.393813020146377,1.7322385398327809,14.203994836728429,0.7537774326706836,-0.8379880285406278,12.651835242473144,7.387646201511675
181,-38.52255380036954,0.9305991700402212,0.37403654628219746,3.0,7.0,0.0,40.12175317646898,20.585924441043943,11.224403138710624,-0.22566259059193725,-0.47066394726643235,-0.11053666896072066,0.15954582416195107,-1.8138430406914645,-0.05961295305673686,-0.01050965135338311,-0.9986655844956366,18.052996550914234,15.30300255406867,19.345216307018614,22.37673109053552,0.22661892197824685,19.916804623646097,20.467959877406276,9.37649931990884
182,-39.579583862660456,0.99832845995876,0.31894884500949744,3.0,15.0,0.0,43.38685640843176,9.955305292986807,4.214613343574881,0.9879529971079557,-1.778527580623349,-0.17553923047377443,-0.3806040365996832,0.5901850570147341,-1.4817011999399505,0.342487046707188,1.0984457403516223,14.119145177422794,2.45949921977569,9.215475309911172,8.35120644171532,12.442707109459608,3.7105076445289784,11.398755770040475,14.584829367465744
183,-39.755495103286634,0.9784299162613783,0.3791438206322386,3.0,7.0,0.0,45.791070927475445,4.0924076755014305,6.614468839982479,2.0486270357190843,0.5363683681445783,0.03358742019153671,-1.0566499482852314,-0.9744448636783303,-0.5835534294592714,-0.27998663472010166,1.711953226778239,17.642987368010985,7.640199533345994,4.314570619773749,-2.8967704822003304,-2.3530275115798593,0.23251169987816667,2.2404448045337615,15.41606894953355
184,-40.93525148851405,0.9850389700028367,0.45611429717578444,3.0,7.0,0.0,45.30034272903972,12.067008413263359,2.634511667925162,1.218533476503433,-1.0717834629239245,0.37960576194372375,-2.0544989921631887,0.04213830952144272,0.7656281668993302,-0.9126104282842595,-0.21250181206523294,15.277249074869065,9.243382374701046,13.06708422231572,6.6544068466689525,12.178022281364242,14.084064752251798,9.662725591678297,11.507169909922263
185,-35.577908160647624,0.8908060080300598,0.37403654628219746,3.0,7.0,0.0,41.956883177752445,6.583545301831051,10.099340968210571,0.4504028465756305,-0.7296314619538675,-0.7401315770258271,0.2865068503776851,-0.3333028645496756,-0.7850608880941721,-0.03419441649674007,-0.5010353449181973,11.132317222450975,-0.7852516135750163,-0.8912958558921824,9.477075673523382,3.217406027062573,-1.3450522878381959,6.238204230421468,1.5234185163771858
186,-36.09705915650767,0.45084821445685824,0.31894884500949744,4.0,15.0,0.0,43.950054434749624,8.04548230851893,21.194374527901935,-0.027329594806073942,0.31448432199897314,-0.7049978592807638,-0.9593708552945784,-0.2002650559147971,0.14451431296057726,0.4250434803615545,0.6022983260772188,7.466248640503195,14.710780812118475,-6.896506362446683,-12.287782909747976,3.800989708609497,11.108372782047837,17.054013021944648,20.81081860892791
187,-41.24010863646754,0.9176275393490162,0.3791438206322386,4.0,15.0,0.0,47.5236364976215,1.9300562846548324,1.2877485779815743,-1.7624364989756194,-1.1846478187248584,-0.027416526913088712,0.45682821256863143,-1.0639591566499447,0.48075197609495157,0.339744887025639,0.5213588045309199,-0.3395188106838456,0.4045277406829222,1.8947506911093088,2.518336165771952,0.559944393648391,2.5491439582329383,2.3675622797986096,2.601435343807698
188,-36.3193106819944,0.9449422393242763,0.45611429717578444,3.0,7.0,0.0,41.8327115912209,5.790366359674642,8.307086761383905,-0.29276233738258756,-0.1434735643937065,-0.4797572943314951,0.9387475110304747,-0.3111259037965132,-1.1337545883291722,0.7254526134884193,-0.33442766448221184,3.3583642225719403,4.5985190122911215,1.804980891256117,13.58862338083799,3.2058164831230243,-3.627831371692884,11.816764161195644,3.0122467354139215
189,-37.23476192578266,0.8981441753301865,0.37403654628219746,3.0,7.0,0.0,40.263206126027455,6.177331983342322,4.338056444683749,1.218987123324959,0.053774834641734215,0.9132842024649359,-0.04935423864266514,-0.3193564432492128,0.7962093293672804,1.1628756221778522,0.430367667321498,11.465366929668665,6.4106102513217,10.139210403673195,5.963230510326048,4.791945706553794,9.63133299592138,11.221952070496577,8.044291216149858
190,-35.02933286270828,0.19459559060577356,0.31894884500949744,3.0,7.0,0.0,44.274848098455365,6.481694077521344,10.111082953653993,0.38414621398384696,0.19379370174830185,-0.9463749623334181,-0.41832170468020713,-0.8591599864774391,-0.0581947151757137,0.6275438759898078,0.9228999352392748,10.365828313444139,8.441158271794105,-3.0871816718930196,2.252008620185822,-2.2053438162122854,5.893282484915436,12.826842264711845,15.81321188064755
191,-41.75665463976235,0.962430997121127,0.3791438206322386,3.0,15.0,0.0,45.53854135087422,18.262428949808058,6.245728336131417,0.5718332606789694,-0.2497717832958849,-0.4720014058132176,-0.7133946724095173,0.9716186122144448,0.329804045387589,0.6282291152020978,0.9916424647795078,21.83394414957312,16.702422245310874,15.314436394826581,13.806759629494746,24.3308948480285,20.322295421456094,22.18617733620857,24.45595839139263
192,-37.12555218528606,0.9594866137271711,0.45611429717578444,3.0,7.0,0.0,40.54179224521453,2.049140563852313,14.037923150815718,2.062219017187287,-0.03182882829774891,0.6375402007244437,0.2521449485169687,-0.44801954585725773,0.7031104411712011,0.2161919826628485,0.8367715057249708,30.998412647278165,1.6023299182280049,10.998880907177682,5.588731973999906,-4.24012339095523,11.91935090354977,5.084027002295864,13.795674656011808
193,-38.063979429725634,0.9824713851815078,0.37403654628219746,3.0,7.0,0.0,40.431383136050115,6.545676681767912,8.659551461055154,-0.0493222195287199,0.22685446832529058,-1.597563187541784,-0.004421437107335509,-0.7028923804104968,0.806634764554617,-0.20271758654777394,-1.1435332911912237,6.118568383585503,8.510134624401072,-7.288503953037472,6.507389019605121,0.45894394201965927,13.530771935704726,4.790233308996561,-3.356808700732257
194,-39.14868502903796,0.8790874112895003,0.31894884500949744,3.0,7.0,0.0,40.536000283320476,11.217299772630493,6.196889264423053,0.49456184886034465,0.8073063811249886,1.4760885941460893,0.6359961257576502,-0.5742205643526872,-1.2225377743714714,-0.03793994490650709,-1.1914044488634268,14.282044784426379,16.220088018924162,20.36445733503171,15.15849733655273,7.658918521982379,3.64136856327627,10.982190135346558,3.8342983338828596
195,-44.4747400676708,0.9974966528192465,0.3791438206322386,4.0,15.0,0.0,49.82913624905092,8.704861510286706,0.8529842359394474,0.20967333626883347,-0.7776906504946396,-1.861675136409292,-0.33420472597243356,1.4061637128282294,-1.7411369599988211,2.356071872616139,-0.32007218639978297,8.883709560820853,8.041503644977285,7.11688196648916,8.419790147455759,9.90429699047927,7.2196991307961795,10.714553676368606,8.43184498092502
196,-40.493878336881245,0.7757318756624914,0.45611429717578444,3.0,7.0,0.0,43.156629871569855,2.4330857514685293,5.096091130226406,-0.6123479527257645,0.7052484274465147,1.6115623538522466,-0.14010618432956212,-0.9321956674243151,1.0025004514453855,1.8290709280823825,0.8267814388941662,-0.6874952190295378,6.027096007184834,10.645754368741752,1.719091868216782,-2.3174683209280076,7.541919410127326,11.75419788462414,6.646439308852915
197,-40.12103417703533,0.9119314324325477,0.37403654628219746,3.0,7.0,0.0,43.019508794524974,4.656178143434955,2.1078638921454593,2.159272177113553,-0.9849700440936107,-0.23852301530060582,1.0696331253969025,-0.9806712246542953,-0.06141759420393944,-0.2706094549711704,-0.25293767862419897,9.20762999888693,2.5799953526451125,4.1534040920371496,6.910819186301782,2.589056678920098,4.526718214270029,4.085770244428063,4.123019943699914
198,-38.847255907273635,0.9762184033826712,0.31894884500949744,4.0,15.0,0.0,43.57270840237446,2.239470199850179,3.118244492706698,0.5343300427863432,0.5396801892529077,0.7334733999458317,-0.2261779775700973,-0.18785689041036202,-0.7874530339743359,-0.9341513621755336,0.9966675056784493,3.905641913056428,3.922324977810967,4.526619589778126,1.5341919669206838,1.6536864859110618,-0.21600088660547412,-0.6734421406081386,5.347323160491725
199,-39.29443019559398,0.9148262336589081,0.3791438206322386,3.0,7.0,0.0,47.155086343352274,7.784785028674203,0.29176860005281136,0.5574844224529633,-0.3512707917291649,0.2821695071114184,-0.13366664533783512,0.16708222977952203,-1.0488733558337817,0.686709211051197,-0.16192678898298585,7.947441478164554,7.682295241531942,7.867113230741693,7.745785298690227,7.833534376950676,7.478756718009886,7.985145213825981,7.73753987614159
200,-40.696773045442924,0.9018890930251092,0.45611429717578444,3.0,7.0,0.0,45.50908230933181,8.614739488811498,3.631908577305606,1.2314441110583019,0.7055019378740288,-0.7332533307525867,0.3262185417755509,1.2349132230138187,0.4343989559171676,2.3178282361547473,0.4974115391070972,13.087231918236622,11.17705802828191,5.951630427513274,9.79953540876225,13.099831415703497,10.192436782779659,17.03287974042305,10.421292724145347
201,-39.903008720038144,0.9413459729210779,0.37403654628219746,3.0,15.0,0.0,43.855323808745524,7.988276420479512,6.612387027305012,-0.9207511679039319,-2.2143374672861387,-0.38713359615964993,0.07517750692964914,-0.40462482869574035,-0.04882039330308399,0.5041116389499046,1.0535033149858086,1.8999133424556138,-6.653779922278787,5.4283992513995045,8.485379192046256,5.3127404522862856,7.66545708513427,11.321657682185329,14.954448073714499
202,-35.67343563739152,0.7203756256218599,0.31894884500949744,3.0,7.0,0.0,41.035417240526534,11.155091868120799,7.287947810094598,0.8824425045156159,0.1565150698349203,-1.0972816145493565,-0.656867580844958,-0.41459707883631025,-0.9101757004622747,0.43118463204473817,-0.4568750260256915,17.586286786439775,12.295765528571009,3.1581607283087525,6.367875220779651,8.133529995344094,4.521778865135448,14.297542962977694,7.825410522709948
203,-38.326778848987914,0.9946442426194337,0.3791438206322386,2.0,7.0,0.0,41.10174412284313,5.711712217167374,0.7205477089631673,0.8129212330242455,0.28138902919303843,0.45809177430510795,-0.12767837483666938,-0.6063419437954584,-0.6070394663678195,0.5171518753601743,-0.16809547060716554,6.297460749190507,5.9144664374797875,6.041789195637792,5.619713856694672,5.274813918717284,5.274311320425818,6.084344816144153,5.590591410934295
204,-38.524082132233104,0.561105570398592,0.45611429717578444,2.0,7.0,0.0,42.8906737514443,6.19105192375398,3.737735894322071,1.4972467092818897,0.36496409045812256,-0.5308900134089849,0.6499347969966055,0.7319837131974196,0.35525170189203586,1.6729964523672973,0.7058984936874079,11.787364691692503,7.555191304797912,4.2067252646980915,8.620336543457121,8.927013722631127,7.518888961434846,12.444270814840712,8.829514061357287
205,-37.5200033517384,0.8896280508358693,0.37403654628219746,4.0,15.0,0.0,45.298966094652485,11.858322521826867,11.526374832364727,2.118583801629944,0.021406629909389352,0.13888832050711736,-0.4420168975012367,-0.7476560513925146,-0.9282449169996524,-0.11002235363727433,-1.2299560306703707,36.27791353318984,12.105063362060198,13.45920136382951,6.763470078988673,3.240558627790998,1.159023672251589,10.590163633864657,-2.3186117150073127
206,-35.66979237114747,0.9565142435164012,0.31894884500949744,4.0,31.0,0.0,39.653914532495094,1.8428129507182045,16.05198180719761,-0.0007295074022537484,0.20122327341150814,0.7386377454472566,0.731373042235837,0.07824351249059908,0.4342487015237161,0.8108626828551627,0.35077316905000816,1.8311029111690114,5.072845274704484,13.699412602747026,13.58279971896263,3.09877638974854,8.81336520737608,14.858765984044721,7.473417478761988
207,-37.760220932179124,0.4192504190714459,0.3791438206322386,3.0,7.0,0.0,41.91822855821966,12.885848521146142,10.990191603369787,1.7495986173158404,0.6174115411751384,0.032450020690463016,-1.249746964191679,-0.2876212366419407,-0.13749213693684054,0.39896707301642853,0.5247505766419499,32.11427255443808,19.671319656792747,13.242480466067645,-0.8491100710501307,9.72483602125305,11.37478359225351,17.270573097032315,18.652957902419956
208,-40.284176176226346,0.6018639780452857,0.45611429717578444,2.0,7.0,0.0,43.22476203891351,8.545824097691273,1.8997402290225984,0.4550195471495987,-0.5226539105454056,0.6019561772216103,-0.4874377519712011,2.316343775664559,-0.30329622261144595,0.4569863967776522,0.1400962613967432,9.410243036403012,7.552917437972188,9.689384463667823,7.619818991127243,12.946275552567332,7.969640062285716,9.413979539765862,8.811970601402333
209,-38.79986152116764,0.9252123919781615,0.37403654628219746,4.0,15.0,0.0,42.66912278213414,11.147980230567388,7.570132582019312,1.1643955100143508,-1.2144110317025258,1.3283813856603395,-1.1533720621597052,-0.4786026372445189,-0.7749859073649834,1.0968467164788502,0.38480166742325306,19.96260861928402,1.95472771151241,21.204003439502685,2.416800803621401,7.524894812522286,5.281234162617927,19.45125529646483,14.060979870743516
210,-36.117966608966185,0.5903056541586525,0.31894884500949744,4.0,31.0,0.0,41.850275478564285,14.25960432158526,19.846944893486672,1.1122098222259271,0.6780146675763834,-1.0925539909447086,-0.6287993456638361,-0.5665657734270619,-0.6766002520904194,0.19418814386728317,0.1038111676610658,36.33357137329784,27.716124065949423,-7.424254529853309,1.7798583591346269,3.015004637842706,0.8311564034275154,18.113645711887692,16.319938845482937
211,-38.728868764715045,0.6978054935129089,0.3791438206322386,4.0,15.0,0.0,44.25958974614128,4.977774614381362,6.049313772073848,-0.24824530923232035,1.9989215707954657,0.17466279161805587,-0.23963220169569915,0.5391724219810021,0.4931818376785423,0.12674933028529528,0.019355430057407003,3.4760608463895553,17.069878401889863,6.034364645185332,3.528164236431191,8.23939777219345,7.961186297186857,5.744521083677336,5.094861683992046
212,-41.02994153323738,0.6972375819008257,0.45611429717578444,3.0,7.0,0.0,45.396203565407255,-2.1572497469530063,2.9614034923498402,1.4057758199099295,0.7691928860540568,0.1315372390283722,-0.28415457985212655,0.19900161200514221,-1.333692182730809,0.2900857801668119,1.1676257556582648,2.005819675589219,0.1206407520981303,-1.7677149079203291,-2.9987461120942953,-1.5679256781777302,-6.106850434611705,-1.2981887044859814,1.3005612436110003
213,-36.51977117580396,0.9555704171790428,0.37403654628219746,3.0,7.0,0.0,40.84317655769783,10.841384048167956,6.1771085559525885,-0.021820437897876133,-0.40886659121036345,-0.002696580491467482,-1.0262044894155324,-1.0833041679003845,-0.004294554410507689,1.2773858078982259,0.23106361140477788,10.706596834534354,8.31577072935925,10.824726977742298,4.502407516442314,4.149696603931392,10.814856119374806,18.7319348513885,12.268689059145714
214,-38.125190115739755,0.8543448890650969,0.31894884500949744,4.0,15.0,0.0,40.636252664563976,16.060980920119857,12.165136689289598,0.2128171331064609,-1.2753700517061581,-0.16014942669879162,1.0970223566431425,-1.2037081547148607,-0.7193646874583551,0.14914406055427787,-0.5877312029099144,18.649930434182693,0.5459299116881002,14.112741253617692,29.40640783989029,1.4177066840010237,7.309811167740875,17.875338803158332,8.911150500160147
215,-38.95352154304521,0.9455961430319869,0.3791438206322386,3.0,7.0,0.0,42.801851441297224,9.831160762343599,2.0325588925274434,0.9889017046139706,0.5197767748683648,-0.0852265136730745,0.6139771718571757,-0.16024470289324572,-0.5688813025625501,0.7599614289491184,1.7664710382127715,11.841161715892271,10.887637668231529,9.657932854098279,11.079105522810751,9.505453966497514,8.674876012027493,11.375827122731993,13.421617179455152
216,-41.471421954939686,0.9849299441336651,0.45611429717578444,3.0,7.0,0.0,46.72895667400746,1.198353229613728,13.235825630794773,0.27330522407898955,1.126221060433279,0.8573956524850261,-0.6642043204090007,-0.7651080468766428,1.4734397004707172,1.2118028178715927,1.439057997109225,4.815773519508527,16.104818807237393,12.546692582507045,-7.592939338540347,-8.928483467563469,20.70054418253462,17.237564025867883,20.2454739519522
217,-40.083302856725126,0.9164461300197517,0.37403654628219746,3.0,7.0,0.0,43.53462514124698,11.309502210993237,6.11632119800076,2.012550695743948,0.4752362161831839,-1.9479542180902691,-0.5316425626493703,-0.9715470175317653,0.09406579654884978,-0.9503354135360671,0.7965821954174364,23.618908693423123,14.216199554092118,-0.6048114658472716,8.057805535301448,5.367208592809285,11.884838836431793,5.496945575971772,16.181654778774888
218,-37.17573444343894,0.9593266309237719,0.31894884500949744,4.0,15.0,0.0,44.174279571536054,9.862329932506778,7.684129048301581,0.5656415547058024,-0.4861505096143571,-0.5423956254351672,-0.11731813216115927,-0.6951352455433202,0.4161102269250174,1.9834572060921694,0.5699163806509209,14.208792633948102,6.12668667973248,5.694491951428707,8.96084226527473,4.5208209997291,13.059774614516668,25.10347106590271,14.24164094816942
219,-37.79363931632922,0.9799945622255793,0.3791438206322386,2.0,7.0,0.0,40.92541890372874,8.648376331643911,3.5877228318187973,0.8817363445535379,0.5977038089255732,-0.12017467035614608,0.798467982265965,0.2288520479636446,-0.46782078627711354,0.8630866078484845,1.4295959013921349,11.811801946643085,10.79277193359125,8.217222923000868,11.513058142095801,9.46943404923157,6.969965015518089,11.744891860458957,13.777370187343047
220,-37.82995575397872,1.0,0.45611429717578444,3.0,7.0,0.0,42.62746188013773,4.08964781946494,4.73339923319228,-0.31262982788648275,0.053730153161674954,0.851529805619925,-0.15213028416876306,0.02387602849760967,0.37779229230052935,1.4614548395515194,1.2947467390162481,2.609846031874028,4.343974085239716,8.120278348426664,3.369554449035193,4.202662594447203,5.877889566146219,11.00729703634325,10.218201041102654
221,-40.083302856725126,0.16751813884071506,0.37403654628219746,3.0,7.0,0.0,46.910118921341706,11.309502210993237,6.11632119800076,2.012550695743948,0.4752362161831839,-1.9479542180902691,-0.5316425626493703,-0.9715470175317653,0.09406579654884978,-0.9503354135360671,0.7965821954174364,23.618908693423123,14.216199554092118,-0.6048114658472716,8.057805535301448,5.367208592809285,11.884838836431793,5.496945575971772,16.181654778774888
222,-37.118338947071514,0.9661939132614783,0.31894884500949744,3.0,7.0,0.0,41.31787505183985,11.179677206880081,10.505908585766376,0.16815039124803985,-0.45013005092334685,0.3797982844420662,0.48469629326096525,-0.6256719187285161,0.7454758282342738,0.8453807464289796,0.9578926029199102,12.946249845992838,6.450652040173035,15.169803264259324,16.271852155739595,4.606425224037241,19.01157811120784,20.061170049029883,21.24320932813847
223,-36.24705747970768,0.5034352981992194,0.3791438206322386,4.0,15.0,0.0,41.879784527451676,10.327138338662783,5.679279683641062,-0.49378962204621857,0.6653627858900311,-0.45429176165228397,0.323096499238673,-0.6263099813007367,-0.8721597718171729,0.6418958255946066,0.295883296694196,7.522768970182895,14.105919690818855,7.747088366265459,12.162093722644528,6.770148786199895,5.3738990656924885,13.972644259976239,12.007542334306871
224,-39.12132231456824,0.9661674721937733,0.45611429717578444,3.0,7.0,0.0,42.292155010854465,14.32629846473099,3.812428867180252,0.06793744799607435,0.4978680493018526,-0.2086041749853647,-0.7837024418097258,-1.3944327200078819,1.2921081398656307,-0.23949203721489654,0.24570299339746482,14.58530515263378,16.224384987936094,13.531009886202463,11.33848865229594,9.010122909632262,19.2523688366733,13.41325210859311,15.263023649512084
225,-39.468448286601614,0.9942180464440569,0.37403654628219746,3.0,15.0,0.0,44.34420468488601,8.158424265147124,6.92448266324265,-1.4234315968746336,1.252414405837781,-1.336448430992538,0.3392734326720467,-1.0303750275142423,-1.1001962156689093,0.7084257927484958,-0.11867261373039578,-1.698103149723078,16.830746105566185,-1.0957897255785465,10.507717267783534,1.023610250486585,0.5401346435825891,13.063906385228014,7.3366778087693065
226,-38.264194132347995,0.9840057475811743,0.31894884500949744,4.0,15.0,0.0,40.78881170947225,4.439596621029107,2.8359109690849,0.6857363575278869,0.4508410017062668,-0.7494619633384847,-0.7802989076742695,0.3987609942999197,-1.2157927923056249,-0.07939270882922976,-0.7899530645994104,6.3842838792427665,5.718141563081133,2.314189218285593,2.2267383895906807,5.5704472988074505,0.9917165051952259,4.214445967194931,2.1993600600694068
227,-38.714935263401145,0.979684079670217,0.3791438206322386,3.0,7.0,0.0,40.23530466796085,6.815968688136456,11.428154990933175,-0.5624817445375637,-0.402849752958091,-1.2632164475065326,0.6761866016856279,-0.13038956387343026,-1.087274193460646,-0.38504958193304395,1.149826978786575,0.3878401319906981,2.2121392732722516,-7.6202646610641995,14.543533974992208,5.325856542990714,-5.609569312373669,2.415562386611607,19.956369614465864
228,-40.78095309557604,0.9447566303346252,0.45611429717578444,3.0,7.0,0.0,45.709693640084524,4.614932503490968,4.956645844536226,0.6804063801415456,-0.873129438023108,2.0318744553571535,1.679052487155089,-0.9646174375040357,-0.5526099720178629,0.8944981468787012,-0.4646589261376849,7.987465960215495,0.28713910277147914,14.68621457925631,12.937401036706454,-0.1663345096805937,1.8758405820393476,9.048643026162637,2.3117827681239467
